!!!!SEGMENT: pl-sa--241-a-vii-1_gorczycki-grzegorz-gerwazy--laetatus-sum.krn
!!!cenid: 17xx:252
!!!COM: Gorczycki, Grzegorz Gerwazy
!!!COM-rismID: pe30009207
!!!CDT: ~1666-1734/04/30
!!!CNT: Polish
!!!OTL: Laetatus sum
!!!PDT: 1730
!!!AGN:
!!!SMS-siglum: PL-SA
!!!SMS-shelfmark: 241/A VII 1
!!!SMS-shelfwork: W
!!!NIFC-rismSourceID: 1001035347
!!!NIFC-rismChildID: 1001035347
!!!NIFC-islandoraID:
!!!URL-pdf-islandora:
!!!URL-scan: https://bc.bdsandomierz.pl/dlibra/publication/1593/edition/1561/content @EN{Scan in the Sandomierz Diocese Digital Library} @PL{Skany w portalu Cyfrowa Biblioteka Diecezjalna w Sandomierzu}
!!!ONB-nifc:
!!!AIN: 1 alto 1 bass 2 empty 1 organ 1 tenor 2 violn 1 vox
!!!key:
**kern	**fba	**kern	**kern	**kern	**text	**mod-text	**kern	**text	**mod-text	**kern	**text	**mod-text	**kern	**text	**mod-text	**kern	**kern
*part9	*	*part8	*part7	*part6	*part6	*part6	*part5	*part5	*part5	*part4	*part4	*part4	*part3	*part3	*part3	*part2	*part1
*	*	*group3	*group3	*group2	*	*	*group2	*	*	*group2	*	*	*group2	*	*	*group1	*group1
*staff9	*	*staff8	*staff7	*staff6	*staff6	*staff6	*staff5	*staff5	*staff5	*staff4	*staff4	*staff4	*staff3	*staff3	*staff3	*staff2	*staff1
*Iorgan	*	*Ivioln	*Ivioln	*Ibass	*	*	*Itenor	*	*	*Ialto	*	*	*Ivox	*	*	*Iempty	*Iempty
*I"Organo	*	*I"Violino 2do.	*I"Violino 1mo.	*I"Basso	*	*	*I"Tenore	*	*	*I"Alto	*	*	*I"Canto	*	*	*I"Clarino 2 do	*I"Claro 1mo
*	*	*mI"Violino II	*mI"Violino I	*	*	*	*	*	*	*	*	*	*mI"Soprano	*	*	*mI"Clarino II	*mI"Clarino I
*I'org	*	*I'vl 2	*I'vl 1	*I'B	*	*	*I'T	*	*	*I'A	*	*	*I'S	*	*	*I'clno 2	*I'clno 1
*clefF4	*	*clefG2	*clefG2	*clefF4	*	*	*clefC4	*	*	*clefC3	*	*	*clefC1	*	*	*clefG2	*clefG2
*	*	*	*	*	*	*	*mclefGv2	*	*	*mclefG2	*	*	*mclefG2	*	*	*	*
*k[]	*	*k[]	*k[]	*k[]	*	*	*k[]	*	*	*k[]	*	*	*k[]	*	*	*k[]	*k[]
*C:	*	*C:	*C:	*C:	*	*	*C:	*	*	*C:	*	*	*C:	*	*	*C:	*C:
*M2/2	*	*M2/2	*M2/2	*M2/2	*	*	*M2/2	*	*	*M2/2	*	*	*M2/2	*	*	*M2/2	*M2/2
*met(C.)	*	*met(c|)	*met(c|)	*met(c)	*	*	*met(C.)	*	*	*met(C.)	*	*	*met(c)	*	*	*met(c|)	*met(c|)
=1	=1	=1	=1	=1	=1	=1	=1	=1	=1	=1	=1	=1	=1	=1	=1	=1	=1
!	!	!LO:MO:mod=!null:null	!LO:MO:mod=!null:null	!	!	!	!	!	!	!	!	!	!	!	!	!LO:MO:mod=!null:null	!LO:MO:mod=!null:null
!	!	!LO:TX:b:t=Letatus Sum.	!LO:TX:b:t=Letatus.	!LO:TX:a:t=P:problem=nazwa głosu wpisana ołówkiem	!	!	!	!	!	!	!	!	!	!	!	!LO:TX:b:t=Letatus	!LO:TX:b:t=Letatus
!	!	!	!	!	!	!	!	!	!	!	!	!	!	!	!	!	!LO:TX:a:t=P:problem=w tym pliku nie działa ukrycie pojedynczej kreski taktowej =-
8rA	.	1r	1r	0rG	.	.	0r	.	.	8r	.	.	0r	.	.	0ra	0ra
!LO:MO:mod=!LO&colon;TX&colon;a&colon;i&colon;t=Solo	!	!	!	!	!	!	!	!	!	!	!	!	!	!	!	!	!
!null	!	!	!	!	!	!	!	!	!	!LO:TX:a:i:t=Solo	!	!	!	!	!	!	!
8c\L	.	.	.	.	.	.	.	.	.	8g\	Lae-	Lae-	.	.	.	.	.
8B\	.	.	.	.	.	.	.	.	.	16g\LL	-ta-	-ta-	.	.	.	.	.
.	.	.	.	.	.	.	.	.	.	16a\JJ	.	.	.	.	.	.	.
!LO:MO:mod=!null:null	!	!	!	!	!	!	!	!	!	!	!	!	!	!	!	!	!
!LO:TX:a:i:t=Solo	!	!	!	!	!	!	!	!	!	!	!	!	!	!	!	!	!
8G\J	.	.	.	.	.	.	.	.	.	16g\LL	-tus	-tus	.	.	.	.	.
.	.	.	.	.	.	.	.	.	.	16f\JJ	.	.	.	.	.	.	.
8A\L	.	.	.	.	.	.	.	.	.	8e\	sum	sum,	.	.	.	.	.
8F\J	.	.	.	.	.	.	.	.	.	16f\LL	lae-	lae-	.	.	.	.	.
.	.	.	.	.	.	.	.	.	.	16e\JJ	.	.	.	.	.	.	.
!LO:TX:t=P:problem=mixed beam	!	!	!	!	!	!	!	!	!	!	!	!	!	!	!	!	!
8G\L	.	.	.	.	.	.	.	.	.	8.d\	-ta-	-ta-	.	.	.	.	.
8GG/J	.	.	.	.	.	.	.	.	.	.	.	.	.	.	.	.	.
.	.	.	.	.	.	.	.	.	.	16d\	-tus	-tus	.	.	.	.	.
=2	=2	=2-	=2	=2	=2	=2	=2	=2	=2	=2	=2	=2	=2	=2	=2	=2	=2
4C/	.	8r	8r	.	.	.	.	.	.	4c/	sum	sum,	.	.	.	.	.
.	.	8ee\	8gg\	.	.	.	.	.	.	.	.	.	.	.	.	.	.
4r	.	16ee\LL	16gg\LL	.	.	.	.	.	.	4r	.	.	.	.	.	.	.
.	.	16ff\	16aa\	.	.	.	.	.	.	.	.	.	.	.	.	.	.
.	.	16ee\	16gg\	.	.	.	.	.	.	.	.	.	.	.	.	.	.
.	.	16dd\JJ	16ff\JJ	.	.	.	.	.	.	.	.	.	.	.	.	.	.
8c\L	.	16cc\LL	16ee\LL	.	.	.	.	.	.	2r	.	.	.	.	.	.	.
.	.	16ee\	16gg\	.	.	.	.	.	.	.	.	.	.	.	.	.	.
8F\J	.	16dd\	16ff\	.	.	.	.	.	.	.	.	.	.	.	.	.	.
.	.	16cc\JJ	16ee\JJ	.	.	.	.	.	.	.	.	.	.	.	.	.	.
!LO:TX:t=P:problem=mixed beam	!	!	!	!	!	!	!	!	!	!	!	!	!	!	!	!	!
8G\L	.	8b\L	16dd\LL	.	.	.	.	.	.	.	.	.	.	.	.	.	.
.	.	.	16cc\	.	.	.	.	.	.	.	.	.	.	.	.	.	.
8GG/J	.	8b\J	16dd\	.	.	.	.	.	.	.	.	.	.	.	.	.	.
.	.	.	16ee\JJ	.	.	.	.	.	.	.	.	.	.	.	.	.	.
=3	=3	=3	=3	=3-	=3	=3	=3-	=3	=3	=3	=3	=3	=3	=3	=3	=3-	=3-
4C/	.	4cc\	4cc\	2rG	.	.	2r	.	.	8r	.	.	2rcc	.	.	2ra	2ree
.	.	.	.	.	.	.	.	.	.	8g\	lae-	lae-	.	.	.	.	.
4r	.	4r	4r	.	.	.	.	.	.	16g\LL	-ta-	-ta-	.	.	.	.	.
.	.	.	.	.	.	.	.	.	.	16a\	.	.	.	.	.	.	.
.	.	.	.	.	.	.	.	.	.	16g\	.	.	.	.	.	.	.
.	.	.	.	.	.	.	.	.	.	16a\JJ	.	.	.	.	.	.	.
8rA	.	8r	8r	8r	.	.	8r	.	.	16g\LL	.	.	8rdd	.	.	8r	8r
.	.	.	.	.	.	.	.	.	.	16a\	.	.	.	.	.	.	.
8c\L	.	8ee\L	8gg\L	8c\	Lae-	Lae-	8e\	Lae-	Lae-	16g\	.	.	8ee\	Lae-	Lae-	8ee\L	8gg\L
.	.	.	.	.	.	.	.	.	.	16a\JJ	.	.	.	.	.	.	.
8B\	.	8dd\	8gg\	8B\	-ta-	-ta-	8B\	-ta-	-ta-	16g\LL	.	.	8dd\	-ta-	-ta-	8dd\	8gg\
.	.	.	.	.	.	.	.	.	.	16a\	.	.	.	.	.	.	.
8G\J	.	8b\J	8gg\J	8G\	-tus	-tus,	8B\	-tus	-tus,	16g\	.	.	8dd\	-tus	-tus,	8dd\J	8gg\J
.	.	.	.	.	.	.	.	.	.	16a\JJ	.	.	.	.	.	.	.
=4	=4	=4	=4	=4	=4	=4	=4	=4	=4	=4	=4	=4	=4	=4	=4	=4	=4
8rA	.	8r	8r	8r	.	.	8r	.	.	16g\LL	.	.	8r	.	.	8r	8ree
.	.	.	.	.	.	.	.	.	.	16a\	.	.	.	.	.	.	.
*	*	*	*	*	*ij	*ij	*	*ij	*ij	*	*	*	*	*ij	*ij	*	*
8c\L	.	8g\L	8gg\L	8c\	Lae-	lae-	8e\	Lae-	lae-	16g\	.	.	8ee\	Lae-	lae-	8ee\L	8gg\L
.	.	.	.	.	.	.	.	.	.	16a\JJ	.	.	.	.	.	.	.
8B\	.	8dd\	8gg\	8B\	-ta-	-ta-	8B\	-ta-	-ta-	16g\LL	.	.	8dd\	-ta-	-ta-	8dd\	8gg\
.	.	.	.	.	.	.	.	.	.	16a\	.	.	.	.	.	.	.
8G\J	.	8b\J	8gg\J	8G\	-tus	-tus,	8B\	-tus	-tus,	16g\	.	.	8dd\	-tus	-tus,	8dd\J	8gg\J
*	*	*	*	*	*Xij	*Xij	*	*Xij	*Xij	*	*	*	*	*	*	*	*
.	.	.	.	.	.	.	.	.	.	16a\JJ	.	.	.	.	.	.	.
8r	.	8r	8r	8r	.	.	8r	.	.	16g\LL	.	.	8r	.	.	8r	8rff
.	.	.	.	.	.	.	.	.	.	16a\	.	.	.	.	.	.	.
8E\L	.	8ee\L	8gg\L	8E\	lae-	lae-	8c\	Lae-	lae-	16g\	.	.	8g/	Lae-	lae-	8ee\L	8gg\L
.	.	.	.	.	.	.	.	.	.	16f\JJ	.	.	.	.	.	.	.
!	!	!	!	!	!	!	!	!	!	!	!	!	!	!	!	!LO:SIC:s=8ee\:v	!
8A\	6	8ee\	8aa\	8A\	-ta-	-ta-	8c\	-ta-	-ta-	8e\	.	.	8cc\	-ta-	-ta-	8dd\	8aa\
!	!	!	!	!	!	!	!	!	!	!	!	!	!	!	!	!LO:SIC:s=8cc\J:v	!
8E\J	.	8ee\J	8gg\J	8E\	-tus	-tus,	8c\	-tus	-tus	8e\	-tus	-tus,	8e/	-tus	-tus	8dd\J	8gg\J
*	*	*	*	*	*	*	*	*	*	*	*	*	*	*Xij	*Xij	*	*
!	!	!	!	!	!	!	!	!	!	!LO:LB:g=original	!	!	!	!	!	!	!
=5	=5	=5	=5	=5	=5	=5	=5	=5	=5	=5	=5	=5	=5	=5	=5	=5	=5
!LO:TX:t=P:problem=mixed beam	!	!	!	!	!	!	!	!	!	!	!	!	!	!	!	!	!
8F\L	.	8cc\L	8ff\L	8F\	lae-	lae-	8c\	sum	sum,	8r	.	.	8cc\	Sum	sum,	8cc\L	16ff\LL
.	.	.	.	.	.	.	.	.	.	.	.	.	.	.	.	.	16gg\
8D\	7	16cc\L	8aa\J	8D/	-ta-	-ta-	8c\	lae-	lae-	8f\	lae-	lae-	8ff\	lae-	lae-	8cc\J	16ff\
!	!	!LO:SIC:s=16ee\JJ:v	!	!	!	!	!	!	!	!	!	!	!	!	!	!	!
.	.	16ff\JJ	.	.	.	.	.	.	.	.	.	.	.	.	.	.	16ee\JJ
!	!	!	!	!LO:TX:t=P:problem=mixed beam	!	!	!	!	!	!	!	!	!	!	!	!	!
8G\	.	8dd\L	8.gg\L	8G\L	.	.	4B\	-ta-	-ta-	8.g\	-ta-	-ta-	4dd\	-ta-	-ta-	8g/L	8dd\L
8GG/J	.	8dd\J	.	8GG/J	.	.	.	.	.	.	.	.	.	.	.	8g/J	8dd\J
.	.	.	16gg\Jk	.	.	.	.	.	.	16g\	-tus	-tus	.	.	.	.	.
!	!	!	!	!	!	!	!	!	!	!	!	!	!	!	!	!LO:TX:t=P:problem=mixed beam	!
4C/	.	4ee\	8gg\L	4C/	-tus	-tus:	4c\	-tuſ	-tus:	4e\	sum	sum	4cc\	-tus	-tus:	8e/L	8cc\L
.	.	.	8gg\J	.	.	.	.	.	.	.	.	.	.	.	.	8ee\	8gg\
8A\L	.	8ee\L	8aa\L	4r	.	.	4r	.	.	4r	.	.	4r	.	.	8ee\	8aa\
8E\J	.	8ee\J	8gg\J	.	.	.	.	.	.	.	.	.	.	.	.	8ee\J	8gg\J
!	!	!LO:LB:g=original	!LO:LB:g=original	!	!	!	!	!	!	!	!	!	!	!	!	!	!
=6	=6	=6	=6	=6-	=6	=6	=6	=6	=6	=6	=6	=6	=6	=6	=6	=6	=6
8F\L	.	16dd\LL	16ff\LL	0r	.	.	0r	.	.	2r	.	.	0rcc	.	.	16dd\LL	16ff\LL
.	.	16ee\	16gg\	.	.	.	.	.	.	.	.	.	.	.	.	16ee\	16gg\
8D\J	.	16dd\	16ff\	.	.	.	.	.	.	.	.	.	.	.	.	16dd\	16ff\
.	.	16cc\JJ	16ee\JJ	.	.	.	.	.	.	.	.	.	.	.	.	16cc\JJ	16ee\JJ
!LO:LB:g=original	!	!	!	!	!	!	!	!	!	!	!	!	!	!	!	!	!
!LO:TX:t=P:problem=mixed beam	!	!	!	!	!	!	!	!	!	!	!	!	!	!	!	!	!
8G\L	.	8g/L	8.dd\L	.	.	.	.	.	.	.	.	.	.	.	.	8g/L	8dd\L
8GG/J	.	8g/J	.	.	.	.	.	.	.	.	.	.	.	.	.	8g/J	8dd\J
.	.	.	16dd\Jk	.	.	.	.	.	.	.	.	.	.	.	.	.	.
!LO:TX:t=P:problem=mixed beam	!	!	!	!	!	!	!	!	!	!	!	!	!	!	!	!	!
8C/L	.	4e/	4cc\	.	.	.	.	.	.	8r	.	.	.	.	.	4e/	8cc\L
8c\J	.	.	.	.	.	.	.	.	.	8e\	in	in	.	.	.	.	8cc\J
8B\L	.	4r	4r	.	.	.	.	.	.	8d\	his	his	.	.	.	4r	4r
8A\J	.	.	.	.	.	.	.	.	.	8c\	quae	quae	.	.	.	.	.
=7	=7	=7	=7	=7	=7	=7	=7	=7	=7	=7	=7	=7	=7	=7	=7	=7	=7
4G\	.	1r	1rcc	.	.	.	.	.	.	16d\LL	di-	di-	.	.	.	0ra	0ra
.	.	.	.	.	.	.	.	.	.	16e\	.	.	.	.	.	.	.
.	.	.	.	.	.	.	.	.	.	16d\	.	.	.	.	.	.	.
.	.	.	.	.	.	.	.	.	.	16c\JJ	.	.	.	.	.	.	.
8r	.	.	.	.	.	.	.	.	.	16B\LL	.	.	.	.	.	.	.
.	.	.	.	.	.	.	.	.	.	16e\	.	.	.	.	.	.	.
8G\	6	.	.	.	.	.	.	.	.	16d\	.	.	.	.	.	.	.
.	.	.	.	.	.	.	.	.	.	16e\JJ	.	.	.	.	.	.	.
4A\	.	.	.	.	.	.	.	.	.	16c\LL	.	.	.	.	.	.	.
.	.	.	.	.	.	.	.	.	.	16d\	.	.	.	.	.	.	.
.	.	.	.	.	.	.	.	.	.	16c\	.	.	.	.	.	.	.
.	.	.	.	.	.	.	.	.	.	16B\JJ	.	.	.	.	.	.	.
8r	.	.	.	.	.	.	.	.	.	16A\LL	.	.	.	.	.	.	.
.	.	.	.	.	.	.	.	.	.	16d\	.	.	.	.	.	.	.
8F\	.	.	.	.	.	.	.	.	.	16c\	.	.	.	.	.	.	.
.	.	.	.	.	.	.	.	.	.	16d\JJ	.	.	.	.	.	.	.
=8	=8	=8-	=8-	=8-	=8	=8	=8-	=8	=8	=8	=8	=8	=8	=8	=8	=8	=8
8G\L	.	2r	2ra	2rG	.	.	2r	.	.	8B/	-cta	-cta	2rcc	.	.	.	.
8C\J	.	.	.	.	.	.	.	.	.	16c/	sunt	sunt	.	.	.	.	.
.	.	.	.	.	.	.	.	.	.	16B/	.	.	.	.	.	.	.
4D/	.	.	.	.	.	.	.	.	.	4A/	mi-	mi-	.	.	.	.	.
!LO:TX:t=P:problem=mixed beam	!	!	!	!	!	!	!	!	!	!	!	!	!	!	!	!	!
8GG/L	.	8r	8r	8r	.	.	8r	.	.	8B/	-hi	-hi,	8rcc	.	.	.	.
8G\J	.	8b/L	8g/	8G\	in	In	8G/	in	In	8d\	lae-	lae-	8b\	in	In	.	.
8F#X\L	6	8a/	8dd\L	8F#X\	do-	do-	8A/	Do-	do-	16d\LL	-ta-	-ta-	8a\	Do-	do-	.	.
.	.	.	.	.	.	.	.	.	.	16e\	.	.	.	.	.	.	.
!	!	!	!	!LO:SIC:s=8D/:v	!	!	!	!	!	!	!	!	!	!	!	!	!
8D\J	.	8a/J	8dd\J	8C/	-mum	-mum,	8F#X/	-mum	-mum,	16d\	.	.	8a\	-mum	-mum,	.	.
.	.	.	.	.	.	.	.	.	.	16e\JJ	.	.	.	.	.	.	.
!	!	!	!	!	!	!	!	!	!	!	!	!	!LO:LB:g=original	!	!	!	!
!!LO:MO:ori
=	=	=	=	=	=	=	=	=	=	=	=	=	=	=	=	=	=
!LO:TX:a:t=P:problem=nadmiarowy takt w vl 1	!	!LO:TX:a:t=P:problem=nadmiarowy takt w vl 1	!LO:TX:a:t=P:nadmiarowy:problem	!LO:TX:a:t=P:problem=nadmiarowy takt w vl 1	!	!	!LO:TX:a:t=P:problem=nadmiarowy takt w vl 1	!	!	!LO:TX:a:t=P:problem=nadmiarowy takt w vl 1	!	!	!LO:TX:a:t=P:problem=nadmiarowy takt w vl 1	!	!	!LO:TX:a:t=P:problem=nadmiarowy takt w vl 1	!LO:TX:a:t=P:problem=nadmiarowy takt w vl 1
1ryy	.	1ryy	8r	1ryy	.	.	1ryy	.	.	1ryy	.	.	1ryy	.	.	1ryy	1ryy
.	.	.	8b\	.	.	.	.	.	.	.	.	.	.	.	.	.	.
.	.	.	8dd\L	.	.	.	.	.	.	.	.	.	.	.	.	.	.
.	.	.	8dd\J	.	.	.	.	.	.	.	.	.	.	.	.	.	.
.	.	.	2ra	.	.	.	.	.	.	.	.	.	.	.	.	.	.
!!LO:MO:end
=9	=9	=9	=9	=9	=9	=9	=9	=9	=9	=9	=9	=9	=9	=9	=9	=9-	=9-
8rG	.	8r	8r	8rA	.	.	8r	.	.	16d\LL	.	.	8r	.	.	1rcc	1rcc
.	.	.	.	.	.	.	.	.	.	16e\	.	.	.	.	.	.	.
*	*	*	*	*	*ij	*ij	*	*	*	*	*	*	*	*ij	*ij	*	*
8G\L	.	8b/L	8b\L	8G\	in	in	8G/	in	in	16d\	.	.	8b\	in	in	.	.
.	.	.	.	.	.	.	.	.	.	16e\JJ	.	.	.	.	.	.	.
!	!	!	!	!	!	!	!LO:LB:g=original	!	!	!LO:LB:g=original	!	!	!	!	!	!	!
!LO:SIC:s=8F#:v	!	!	!	!	!	!	!	!	!	!	!	!	!	!	!	!	!
8F\	6	8a/	8dd\	8F#X\	do-	do-	8A/	Do-	do-	16d\LL	.	.	8a\	Do-	do-	.	.
.	.	.	.	.	.	.	.	.	.	16e\	.	.	.	.	.	.	.
8D\J	.	8a/J	8dd\J	8D/	-mum	-mum,	8F#X/	-mu(m)	-mu(m),	16d\	.	.	8a\	-mum	-mum,	.	.
.	.	.	.	.	.	.	.	.	.	16e\JJ	.	.	.	.	.	.	.
8r	.	8r	8r	8r	.	.	8r	.	.	16d\LL	.	.	8r	.	.	.	.
.	.	.	.	.	.	.	.	.	.	16e\	.	.	.	.	.	.	.
!	!	!	!	!LO:LB:g=original	!	!	!	!	!	!	!	!	!	!	!	!	!
*	*	*	*	*	*	*	*	*ij	*ij	*	*	*	*	*	*	*	*
8D\L	.	8a/	8dd\L	8D/	in	in	8A/	in	in	16d\	.	.	8f#X/	in	in	.	.
.	.	.	.	.	.	.	.	.	.	16c\JJ	.	.	.	.	.	.	.
!LO:SIC:s=8E:v	!	!	!	!	!	!	!	!	!	!	!	!	!	!	!	!	!
8F\	6	8ee\L	8gg\	8E\	Do-	do-	8G/	Do-	do-	8B/	.	.	8g/	Do-	do-	.	.
8D\J	.	8dd\J	8gg\J	8BB/	-mum	-mum	8G/	-mum	-mum	8B/	-tus	-tus,	8g/	-mum	-mum	.	.
*	*	*	*	*	*Xij	*Xij	*	*Xij	*Xij	*	*	*	*	*Xij	*Xij	*	*
=10	=10	=10	=10	=10	=10	=10	=10	=10	=10	=10	=10	=10	=10	=10	=10	=10	=10-
8C/L	.	8cc\L	8ee\L	8C/	Do-	Do-	8G/	Do-	Do-	8r	.	.	8cc\	Do-	Do-	2ra	2ra
8AA/J	.	16cc\L	8gg\J	16AA/	-mi-	-mi-	16c\	-mi-	-mi-	8g\	lae-	lae-	16cc\	-mi-	-mi-	.	.
.	.	16b\JJ	.	16AA/	-ni	-ni	16c\	-ni	-ni	.	.	.	16b\	-ni	-ni	.	.
4D/	4	4a/	4aa\	8.D/	i-	i-	8.d\	i-	i-	8.f#X\	-ta-	-ta-	8.a\	i-	i-	.	.
.	3	.	.	16D/	-bi-	-bi-	16d\	-bi-	-bi-	16f#\	-tus	-tus	16a\	-bi-	-bi-	.	.
!LO:TX:t=P:problem=mixed beam	!	!	!	!	!	!	!	!	!	!	!	!	!	!	!	!	!
8GG/L	.	8b\L	8gg\L	8GG/	-mus	-mus,	8B\	-mus	-mus,	8g\	sum	sum,	8b\	-mus	-mus,	8r	8r
8c\	.	8ee\	8gg\J	8c\	Lae-	lae-	8c\	lae-	lae-	8g\	lae-	lae-	8ee\	lae-	lae-	8ee\L	8gg\
!	!	!	!	!	!	!	!	!	!	!	!	!	!	!	!	!	!LO:LB:g=original
8B\	6	8dd\	16gg\LL	8B\	-ta-	-ta-	8d\	-ta-	-ta-	8g\	-ta-	-ta-	8dd\	-ta-	-ta-	8dd\	16gg\LL
.	.	.	16aa\	.	.	.	.	.	.	.	.	.	.	.	.	.	16aa\
8G\J	.	8dd\J	16gg\	8G\	-tus	-tus,	8B\	-tuſ	-tus,	8g\	-tus	-tus,	8dd\	-tus	-tus,	8dd\J	16gg\
.	.	.	16aa\JJ	.	.	.	.	.	.	.	.	.	.	.	.	.	16aa\JJ
=11	=11	=11	=11	=11	=11	=11	=11	=11	=11	=11	=11	=11	=11	=11	=11	=11-	=11
8rA	.	8r	16gg\LL	8rA	.	.	8r	.	.	8r	.	.	8r	.	.	8r	16gg\LL
.	.	.	16aa\	.	.	.	.	.	.	.	.	.	.	.	.	.	16aa\
*	*	*	*	*	*ij	*ij	*	*ij	*ij	*	*ij	*ij	*	*ij	*ij	*	*
8c\L	.	8ee\L	16gg\	8c\	Lae-	lae-	8c\	lae-	lae-	8g\	lae-	lae-	8ee\	lae-	lae-	8ee\L	16gg\
.	.	.	16aa\JJ	.	.	.	.	.	.	.	.	.	.	.	.	.	16aa\JJ
!	!	!	!LO:LB:g=original	!	!	!	!	!	!	!	!	!	!	!	!	!	!
8B\	6	8dd\	16gg\LL	8B\	-ta-	-ta-	8d\	-ta-	-ta-	8g\	-ta-	-ta-	8dd\	-ta-	-ta-	8dd\	16gg\LL
.	.	.	16aa\	.	.	.	.	.	.	.	.	.	.	.	.	.	16aa\
8G\J	.	8dd\J	16gg\	8G\	-tus	-tus,	8B\	-tuſ	-tus,	8g\	-tus	-tus,	8dd\	-tus	-tus,	8dd\J	16gg\
*	*	*	*	*	*	*	*	*Xij	*Xij	*	*Xij	*Xij	*	*	*	*	*
!	!	!	!	!	!	!	!	!	!	!	!	!	!	!	!	!LO:TX:a:t=P:problem=przekreślona zbędna kreska taktowa	!
.	.	.	16aa\JJ	.	.	.	.	.	.	.	.	.	.	.	.	.	16aa\JJ
!	!	!	!	!	!	!	!	!	!	!	!	!	!	!	!	!LO:LB:g=original	!
8rA	.	8r	8gg\L	8rF	.	.	8r	.	.	8r	.	.	8r	.	.	8r	8gg\L
8E\	6	8ee\L	8gg\J	8E\	Lae-	lae-	8c\	lae-	lae-	8g\	lae-	lae-	8g/	lae-	lae-	8ee\L	8gg\
!LO:LB:g=original	!	!	!	!	!	!	!	!	!	!	!	!	!	!	!	!	!
8A\L	.	8ee\	8aa\L	8A\	-ta-	-ta-	8c\	-ta-	-ta-	8e\	-ta-	-ta-	8cc\	-ta-	-ta-	8ee\	8aa\
8E\J	.	8ee\J	8gg\J	8E\	-tus	-tus	8c\	-tus	-tus	8g\	-tus	-tus	8g/	-tus	-tus	8ee\J	8gg\J
*	*	*	*	*	*Xij	*Xij	*	*	*	*	*	*	*	*Xij	*Xij	*	*
!	!	!	!	!	!	!	!	!	!	!	!	!	!LO:LB:original	!	!	!	!
=12	=12	=12	=12	=12	=12	=12	=12	=12	=12	=12	=12	=12	=12	=12	=12	=12	=12
8F\L	.	8cc\L	16ff\LL	8F\	Sum	sum,	8c\	sum	sum,	8a\	sum	sum,	8cc\	su(m)	su(m),	8cc\L	16ff\LL
.	.	.	16gg\	.	.	.	.	.	.	.	.	.	.	.	.	.	16gg\
8D\J	7	8dd\J	16ff\	8D/	Lae-	lae-	8c\	lae-	lae-	8f\	lae-	lae-	8ff\	lae-	lae-	8dd\	16ff\
.	.	.	16ee\JJ	.	.	.	.	.	.	.	.	.	.	.	.	.	16ee\JJ
*	*	*	*	*	*	*	*custos	*	*	*	*	*	*	*	*	*	*
!	!	!	!	!	!	!	!LO:LB:g=original	!	!	!	!	!	!	!	!	!	!
!	!	!	!	!LO:TX:t=P:problem=mixed beam	!	!	!	!	!	!	!	!	!	!	!	!	!
4G\	.	8.dd\L	16dd\LL	8G\L	-ta-	-ta-	4B\	-ta-	-ta-	4g\	-ta-	-ta-	4dd\	-ta-	-ta-	8dd\	16dd\LL
.	.	.	16gg\	.	.	.	.	.	.	.	.	.	.	.	.	.	16gg\
.	.	.	16ff\	8GG/J	.	.	.	.	.	.	.	.	.	.	.	8dd\J	16ff\
.	.	16cc\Jk	16gg\JJ	.	.	.	.	.	.	.	.	.	.	.	.	.	16gg\JJ
!	!	!LO:LB:g=original	!	!	!	!	!	!	!	!	!	!	!	!	!	!	!
4C/	.	8cc\L	16ee\LL	4C/	-tus	-tus.	4c\	-tus	-tus.	4g\	-tuſ	-tus.	4cc\	-tus	-tus.	8cc\L	16ee\LL
.	.	.	16ff\	.	.	.	.	.	.	.	.	.	.	.	.	.	16ff\
.	.	8g\J	16ee\	.	.	.	.	.	.	.	.	.	.	.	.	8g\	16ee\
.	.	.	16dd\JJ	.	.	.	.	.	.	.	.	.	.	.	.	.	16dd\JJ
8A\L	.	8cc\L	8cc\L	4r	.	.	4r	.	.	4r	.	.	4r	.	.	8cc\	8cc\L
8E\J	6	8ee\J	8gg\J	.	.	.	.	.	.	.	.	.	.	.	.	8ee\J	8gg\J
!	!	!	!	!	!	!	!	!	!	!LO:LB:g=original	!	!	!	!	!	!	!
=13	=13	=13	=13	=13-	=13	=13	=13	=13	=13	=13	=13	=13	=13	=13	=13	=13	=13
8F\L	.	16dd\LL	16ff\LL	00r	.	.	1r	.	.	2rf	.	.	0rcc	.	.	16dd\LL	16ff\LL
.	.	16ee\	16gg\	.	.	.	.	.	.	.	.	.	.	.	.	16ee\	16gg\
8D\J	.	16dd\	16ff\	.	.	.	.	.	.	.	.	.	.	.	.	16dd\	16ff\
.	.	16cc\JJ	16ee\JJ	.	.	.	.	.	.	.	.	.	.	.	.	16cc\JJ	16ee\JJ
!LO:TX:t=P:problem=mixed beam	!	!	!	!	!	!	!	!	!	!	!	!	!	!	!	!	!
8G\L	.	4g/	8.dd\L	.	.	.	.	.	.	.	.	.	.	.	.	4g/	8.dd\L
8GG/J	.	.	.	.	.	.	.	.	.	.	.	.	.	.	.	.	.
.	.	.	16dd\Jk	.	.	.	.	.	.	.	.	.	.	.	.	.	16dd\Jk
*	*	*	*	*	*	*	*	*	*	*2\right	*	*	*	*	*	*	*
8C/L	.	4e/	4cc\	.	.	.	.	.	.	2g\	ſtan-	Stan-	.	.	.	4e/	4cc\
8D/	.	.	.	.	.	.	.	.	.	.	.	.	.	.	.	.	.
8E/	.	4r	4r	.	.	.	.	.	.	.	.	.	.	.	.	4r	4r
8F/J	.	.	.	.	.	.	.	.	.	.	.	.	.	.	.	.	.
=14	=14	=14-	=14	=14	=14	=14	=14-	=14	=14	=14	=14	=14	=14	=14	=14	=14	=14
!LO:MO:mod=!LO&colon;TX&colon;a&colon;i&colon;t=Tutti	!	!	!	!	!	!	!	!	!	!	!	!	!	!	!	!	!
!LO:TX:a:t=Tut	!	!	!	!	!	!	!	!	!	!	!	!	!	!	!	!	!
8G\L	.	0r	0ra	.	.	.	2r	.	.	2g\	-tes	-tes	.	.	.	0ra	0r
8A\	.	.	.	.	.	.	.	.	.	.	.	.	.	.	.	.	.
8B\	.	.	.	.	.	.	.	.	.	.	.	.	.	.	.	.	.
8G\J	.	.	.	.	.	.	.	.	.	.	.	.	.	.	.	.	.
*	*	*	*	*	*	*	*2\right	*	*	*	*	*	*	*	*	*	*
8c\L	.	.	.	.	.	.	2c\	Stan-	Stan-	2g\	e-	e-	.	.	.	.	.
8B\	.	.	.	.	.	.	.	.	.	.	.	.	.	.	.	.	.
8A\	.	.	.	.	.	.	.	.	.	.	.	.	.	.	.	.	.
8G\J	.	.	.	.	.	.	.	.	.	.	.	.	.	.	.	.	.
=15	=15	=15	=15	=15	=15	=15	=15	=15	=15	=15	=15	=15	=15-	=15	=15	=15	=15
8F\L	.	.	.	.	.	.	[<2c\	-tes	-tes	8a\	-rant	-rant	2rcc	.	.	.	.
8E\	.	.	.	.	.	.	.	.	.	8g\	pe-	pe-	.	.	.	.	.
8F\	.	.	.	.	.	.	.	.	.	8f\	-des	-des	.	.	.	.	.
8C\J	.	.	.	.	.	.	.	.	.	8e\	no-	no-	.	.	.	.	.
*	*	*	*	*	*	*	*	*	*	*	*	*	*2\right	*	*	*	*
8F\L	.	.	.	.	.	.	2c\]	.	.	2f\	.	.	2cc\	Stan-	Stan-	.	.
8E\	.	.	.	.	.	.	.	.	.	.	.	.	.	.	.	.	.
8F\	.	.	.	.	.	.	.	.	.	.	.	.	.	.	.	.	.
8G\J	.	.	.	.	.	.	.	.	.	.	.	.	.	.	.	.	.
=16	=16	=16-	=16-	=16	=16	=16	=16	=16	=16	=16	=16	=16	=16	=16	=16	=16-	=16-
8A\L	.	1r	1r	.	.	.	8c\	e-	e-	2e\	.	.	2cc\	-tes	-tes,	1rcc	1r
8G\	.	.	.	.	.	.	8G/	-rant	-rant	.	.	.	.	.	.	.	.
8A\	.	.	.	.	.	.	8A/	pe-	pe-	.	.	.	.	.	.	.	.
8E\J	6	.	.	.	.	.	8E/	-des	-des	.	.	.	.	.	.	.	.
!LO:TX:t=P:problem=mixed beam	!	!	!	!	!	!	!	!	!	!	!	!	!	!	!	!	!
8F\L	6 5	.	.	.	.	.	(8F/L	.	.	2d\	.	.	(4cc\	Stan-	stan-	.	.
!LO:SIC:s=8D:v	!	!	!	!	!	!	!	!	!	!	!	!	!	!	!	!	!
8E\	.	.	.	.	.	.	8D/J)	.	.	.	.	.	.	.	.	.	.
!	!	!	!	!	!	!	!LO:SIC:s=4G/:v	!	!	!	!	!	!	!	!	!	!
8G\	.	.	.	.	.	.	4A/	noſ-	no-	.	.	.	4b\)	.	.	.	.
8GG/J	.	.	.	.	.	.	.	.	.	.	.	.	.	.	.	.	.
=17	=17	=17	=17	=17-	=17	=17	=17	=17	=17	=17	=17	=17	=17	=17	=17	=17	=17-
*	*	*2\right	*2\center	*	*	*	*	*	*	*	*	*	*	*	*	*2\right	*2\right
!	!	!	!	!	!	!	!LO:SIC:s=4E/:v	!	!	!	!	!	!	!	!	!	!
8C/L	.	2cc\	2cc\	00r	.	.	4D/	-tri	-stri	4e\	-stri	-stri	4cc\	-tes	-tes.	2cc\	2cc\
8BB/	.	.	.	.	.	.	.	.	.	.	.	.	.	.	.	.	.
8AA/	.	.	.	.	.	.	4r	.	.	4r	.	.	4r	.	.	.	.
8GG/J	.	.	.	.	.	.	.	.	.	.	.	.	.	.	.	.	.
!LO:LB:g=original	!	!	!	!	!	!	!	!	!	!	!	!	!	!	!	!	!
8F\L	.	2cc\	2cc\	.	.	.	2rF	.	.	2r	.	.	2rcc	.	.	2cc\	2cc\
8E\	.	.	.	.	.	.	.	.	.	.	.	.	.	.	.	.	.
8D\	.	.	.	.	.	.	.	.	.	.	.	.	.	.	.	.	.
8C\J	.	.	.	.	.	.	.	.	.	.	.	.	.	.	.	.	.
!	!	!	!	!	!	!	!	!	!	!	!	!	!	!	!	!	!LO:LB:g=original
=18	=18	=18	=18	=18	=18	=18	=18	=18	=18	=18	=18	=18	=18-	=18	=18	=18	=18
!	!	!	!	!	!	!	!	!	!	!	!	!	!	!	!	!	!LO:TX:a:t=P:problem=trudny do odszyfrowania rytm ,powinno być jak w vl 1
!	!	!	!	!	!	!	!	!	!	!	!	!	!	!	!	!	!LO:MO:mod=!null:null
!	!	!	!	!	!	!	!	!	!	!	!	!	!	!	!	!	!LO:N:vis=2
8F\L	.	4cc\	8cc\L	.	.	.	1rA	.	.	1r	.	.	0rcc	.	.	4cc\	4cc\
8G\	.	.	8g\J	.	.	.	.	.	.	.	.	.	.	.	.	.	.
8A\	.	8cc\L	8cc\L	.	.	.	.	.	.	.	.	.	.	.	.	8cc\L	4g\
8E\J	6	8g\J	8ee\J	.	.	.	.	.	.	.	.	.	.	.	.	8g\J	.
!LO:TX:t=P:problem=mixed beam	!	!	!	!	!	!	!	!	!	!	!	!	!	!	!	!	!
8F\L	6 5	4cc\	4dd\	.	.	.	.	.	.	.	.	.	.	.	.	4cc\	8cc\L
8D\	.	.	.	.	.	.	.	.	.	.	.	.	.	.	.	.	8ee\J
8G\	.	4g/	8.dd\L	.	.	.	.	.	.	.	.	.	.	.	.	4g/	8.dd\L
8GG/J	.	.	.	.	.	.	.	.	.	.	.	.	.	.	.	.	.
.	.	.	16cc\Jk	.	.	.	.	.	.	.	.	.	.	.	.	.	16cc\Jk
=19	=19	=19	=19	=19	=19	=19	=19-	=19	=19	=19-	=19	=19	=19	=19	=19	=19	=19
4.C/	.	4e/	4cc\	.	.	.	4r	.	.	8r	.	.	.	.	.	4e/	4cc\
.	.	.	.	.	.	.	.	.	.	8g\	in	in	.	.	.	.	.
.	.	4r	4r	.	.	.	8r	.	.	8g\	a-	a-	.	.	.	4r	4r
8C/	.	.	.	.	.	.	8c\	-in	-in	16g\	-tri-	-tri-	.	.	.	.	.
.	.	.	.	.	.	.	.	.	.	16f\	-js	-is	.	.	.	.	.
4E\	6	2rf	2ra	.	.	.	8c\	a-	a-	8e\	tu-	tu-	.	.	.	2ra	2ra
.	.	.	.	.	.	.	16B\	-tri-	-tri-	8e\	-is	-is,	.	.	.	.	.
.	.	.	.	.	.	.	16B\	-js	-is	.	.	.	.	.	.	.	.
4F\	.	.	.	.	.	.	8A/	tu-	tu-	8r	.	.	.	.	.	.	.
.	.	.	.	.	.	.	16A/	-is	-is,	8c/	in	in	.	.	.	.	.
.	.	.	.	.	.	.	16A/	in	in	.	.	.	.	.	.	.	.
!	!	!	!LO:LB:g=original	!	!	!	!LO:LB:g=original	!	!	!	!	!	!	!	!	!	!
=20	=20	=20	=20	=20	=20	=20	=20	=20	=20	=20	=20	=20	=20-	=20	=20	=20	=20
4D\	.	2ra	1rcc	.	.	.	8d\	a-	a-	8f\	a-	a-	1ree	.	.	1rcc	1rcc
.	.	.	.	.	.	.	16d\	-tri-	-tri-	16f\	-tri-	-tri-	.	.	.	.	.
.	.	.	.	.	.	.	16c\	-js	-is	16e\	-js	-is	.	.	.	.	.
!	!	!	!	!	!	!	!	!	!	!LO:LB:g=original	!	!	!	!	!	!	!
4G\	.	.	.	.	.	.	8B\	tu-	tu-	4d\	tu-	tu-	.	.	.	.	.
.	.	.	.	.	.	.	8B\	-is	-is,	.	.	.	.	.	.	.	.
8E\L	6	4.r	.	.	.	.	4c\	Je-	Je-	8e\	-is	-is,	.	.	.	.	.
8C\J	.	.	.	.	.	.	.	.	.	8g\	Je-	Je-	.	.	.	.	.
4D/	.	.	.	.	.	.	8.A\	-ru-	-ru-	8.g\	-ru-	-ru-	.	.	.	.	.
.	.	8dd\	.	.	.	.	.	.	.	.	.	.	.	.	.	.	.
.	.	.	.	.	.	.	16A\	-ſa-	-sa-	16f#X\	-ſa-	-sa-	.	.	.	.	.
!	!	!	!	!LO:LB:g=original	!	!	!	!	!	!	!	!	!	!	!	!	!
=21	=21	=21	=21	=21	=21	=21	=21	=21	=21	=21	=21	=21	=21-	=21	=21	=21	=21-
4GG/	.	16dd\LL	8r	2rF	.	.	4B\	-lem	-lem.	4g\	-lem	-lem.	2rcc	.	.	2ra	2ra
.	.	16ee\	.	.	.	.	.	.	.	.	.	.	.	.	.	.	.
.	.	16dd\	8gg\	.	.	.	.	.	.	.	.	.	.	.	.	.	.
.	.	16cc\JJ	.	.	.	.	.	.	.	.	.	.	.	.	.	.	.
8r	.	8b\L	16gg\LL	.	.	.	4r	.	.	4rd	.	.	.	.	.	.	.
.	.	.	16aa\	.	.	.	.	.	.	.	.	.	.	.	.	.	.
8G\	.	8b\J	16gg\	.	.	.	.	.	.	.	.	.	.	.	.	.	.
.	.	.	16ff\JJ	.	.	.	.	.	.	.	.	.	.	.	.	.	.
8A\L	.	8cc\L	8ee\L	4r	.	.	4r	.	.	4r	.	.	4r	.	.	4r	4r
8F\J	.	16dd\L	16ff\L	.	.	.	.	.	.	.	.	.	.	.	.	.	.
.	.	16cc\JJ	16ee\JJ	.	.	.	.	.	.	.	.	.	.	.	.	.	.
4G\	.	4b\	4dd\	4G\	Je-	Je-	4d\	Je-	Je-	4g\	Je-	Je-	4b\	Je-	Je-	4g/	4dd\
!	!	!	!	!	!	!	!	!	!	!	!	!	!	!	!	!LO:LB:g=original	!
=22	=22	=22	=22	=22	=22	=22	=22	=22	=22	=22	=22	=22	=22	=22	=22	=22	=22
8.E\L	6	8cc\L	4ee\	8.E\	-ru-	-ru-	8.c\	-ru-	-ru-	8.g\	-ru-	-ru-	8.cc\	-ru-	-ru-	8cc\L	8ee\L
.	.	8cc\J	.	.	.	.	.	.	.	.	.	.	.	.	.	8cc\J	8ee\J
16D\Jk	.	.	.	16D/	-sa-	-sa-	16c\	-sa-	-sa-	16f\	-ſa-	-sa-	16cc\	-ſa-	-sa-	.	.
4C/	.	4cc\	4ee\	4C/	-lem	-lem,	4c\	-lem	-lem,	4e\	-lem	-lem,	4cc\	-lem	-lem,	4cc\	4ee\
8c\L	.	8ee\L	8gg\L	8c\	quae	quae	8c\	quae	quae	8e\	quae	quae	8ee\	quae	quae	8ee\L	8gg\L
8B\	.	8dd\J	8gg\	8B\	e-	ae-	8d\	ae-	ae-	8g\	ae-	ae-	8dd\	e-	ae-	8dd\	8gg\
!	!	!LO:LB:g=original	!	!	!	!	!	!	!	!	!	!	!	!	!	!	!
8c\	.	8ee\L	8gg\	8c\	-di-	-di-	8c\	-di-	-di-	8c/	-di-	-di-	8ee\	-di-	-di-	8ee\	8gg\
8G\J	.	8dd\J	8gg\J	8G\	-fi-	-fi-	8B\	-fi-	-fi-	8d\	-fi-	-fi-	8dd\	-fi-	-fi-	8dd\J	8gg\J
=23	=23	=23	=23	=23	=23	=23	=23	=23	=23	=23	=23	=23	=23	=23	=23	=23	=23
4A\	.	8cc\L	8ee\L	8A\	-ca-	-ca-	8c\	-ca-	-ca-	8e\	-ca-	-ca-	8cc\	-ca-	-ca-	8cc\L	8ee\L
.	.	8cc\J	8ee\J	8A\	-tur	-tur	8A/	-tur	-tur	8e\	-tur	-tur	8cc\	-tur	-tur	8cc\J	8ee\J
8r	.	8r	8r	4rG	.	.	8r	.	.	8r	.	.	8r	.	.	4r	8r
8E\	#	8ee\	8ee\	.	.	.	8B\	ut	ut	8g#X\	ut	ut	8b\	ut	ut	.	8ee\
!	!	!	!	!	!	!	!	!	!	!	!	!	!LO:LB:g=original	!	!	!	!
!	!	!	!	!	!	!	!	!	!	!	!	!	!	!	!	!LO:SIC:s=8dd\:v	!
4D\	6	4ff\	4aa\	(8E\	Ut	ut	4.B\	Ci-	ci-	4a\	.	.	4dd\	Ci-	ci-	8ee\	4aa\
.	.	.	.	8D/)	.	.	.	.	.	.	.	.	.	.	.	4ff\	.
4E\	#	4ee\	4gg#X\	8.E\	Ci-	ci-	.	.	.	8.e\	Ci-	ci-	[8.b\	-vi-	-vi-	.	4gg#X\
.	.	.	.	.	.	.	8B\	-vi-	-vi-	.	.	.	.	.	.	8ee\	.
.	.	.	.	16E\	-vi-	-vi-	.	.	.	16e\	-vi-	-vi-	16b\]	.	.	.	.
!	!	!	!	!	!	!	!LO:LB:g=original	!	!	!	!	!	!	!	!	!	!
=24	=24	=24	=24	=24	=24	=24	=24	=24	=24	=24	=24	=24	=24	=24	=24	=24	=24
4AA/	.	4ee\	4aa\	4AA/	-tas	-tas,	8A\	-tas	-tas,	4c/	-tas	-tas,	4cc\	-tas	-tas.	4ee\	4aa\
.	.	.	.	.	.	.	8A\	Cu-	cu-	.	.	.	.	.	.	.	.
!LO:LB:g=original	!	!	!	!	!	!	!	!	!	!	!	!	!	!	!	!	!
4A\	.	4r	4r	4r	.	.	8A\	-jus	-ius	4r	.	.	4r	.	.	4r	4r
.	.	.	.	.	.	.	8B\	par-	par-	.	.	.	.	.	.	.	.
4.E\	6	2ra	2ra	8r	.	.	8c\	-ti-	-ti-	2r	.	.	2rcc	.	.	2ra	2r
.	.	.	.	8E\	Cu-	cu-	8c\	-ti-	-ci-	.	.	.	.	.	.	.	.
.	.	.	.	8E\	-ius	-ius	8c\	-pa-	-pa-	.	.	.	.	.	.	.	.
8F\	.	.	.	8F\	par-	par-	16B\	-ti-	-ti-	.	.	.	.	.	.	.	.
.	.	.	.	.	.	.	16A\	-o	-o	.	.	.	.	.	.	.	.
!	!	!	!	!	!	!	!	!	!	!LO:LB:g=original	!	!	!	!	!	!	!
=25	=25	=25-	=25	=25	=25	=25	=25	=25	=25	=25	=25	=25	=25-	=25	=25	=25	=25
4G\	.	0r	0ra	8G\	-ti-	-ti-	8B\	e-	e-	8r	.	.	0ree	.	.	0ra	0r
.	.	.	.	8G\	-ti-	-ci-	8B\	-jus	-ius,	8d\	Cu-	cu-	.	.	.	.	.
8rG	.	.	.	8G\	-pa-	-pa-	8r	.	.	8d\	-jus	-ius	.	.	.	.	.
!	!	!	!	!LO:SIC:s=16G\:v	!	!	!	!	!	!	!	!	!	!	!	!	!
8G\	.	.	.	16F\	-ti-	-ti-	8c\	par-	par-	8e\	par-	par-	.	.	.	.	.
.	.	.	.	16E\	-o	-o	.	.	.	.	.	.	.	.	.	.	.
!	!	!	!	!LO:LB:g=original	!	!	!	!	!	!	!	!	!	!	!	!	!
4D/	.	.	.	8D/	e-	e-	8d\	-ti-	-ti-	8f\	-ti-	-ti-	.	.	.	.	.
.	.	.	.	8D/	-ius	-ius,	8d\	-ti-	-ci-	8f\	-ti-	-ci-	.	.	.	.	.
8r	.	.	.	8r	.	.	8d\	-pa-	-pa-	8f\	-pa-	-pa-	.	.	.	.	.
8D/	.	.	.	8D/	par-	par-	16c\	-ti-	-ti-	16e\	-ci-	-ti-	.	.	.	.	.
.	.	.	.	.	.	.	16B\	-o	-o	16d\	-o	-o	.	.	.	.	.
=26	=26	=26	=26	=26	=26	=26	=26	=26	=26	=26	=26	=26	=26	=26	=26	=26	=26
4AA/	.	.	.	8A\	-ti-	-ti-	8c\	-e-	-e-	8e\	e-	e-	.	.	.	.	.
.	.	.	.	8A\	-ti-	-ci-	8c\	-jus	-ius	8e\	-jus	-ius	.	.	.	.	.
8rG	.	.	.	8A\	-pa-	-pa-	16c\LL	in	in	16e\LL	in	in	.	.	.	.	.
.	.	.	.	.	.	.	16d\	.	.	16f\	.	.	.	.	.	.	.
8A\	.	.	.	16G\	-ti-	-ti-	16c\	.	.	16e\	id-	.	.	.	.	.	.
.	.	.	.	16F\	-o	-o	16d\JJ	.	.	16f\JJ	.	.	.	.	.	.	.
8E\L	6	.	.	8E\	in	in	8e\	id-	.	8g\	-ips-	.	.	.	.	.	.
8F\J	.	.	.	8F\	j-	i-	(16d\LL	-ip-	i-	(16f\LL	-i-	-i-	.	.	.	.	.
.	.	.	.	.	.	.	16c\JJ)	.	.	16e\JJ)	.	.	.	.	.	.	.
4G\	.	.	.	4G\	-dip-	-di-	4B\	.	-di-	4d\	-um	-di-	.	.	.	.	.
!	!	!	!	!	!	!	!LO:LB:g=original	!	!	!	!	!	!	!	!	!	!
=27	=27	=27-	=27-	=27	=27	=27	=27	=27	=27	=27	=27	=27	=27-	=27	=27	=27-	=27-
4C/	.	4r	4r	4C/	-sum	-psum.	4c\	-sum	-psum.	4e\	.	-psum.	1ree	.	.	1rcc	1r
8c\L	.	8ee\L	8gg\L	4r	.	.	4r	.	.	4r	.	.	.	.	.	.	.
8B\	6	8gg\J	8dd\J	.	.	.	.	.	.	.	.	.	.	.	.	.	.
8c\	.	8cc\L	8ee\L	2rC	.	.	2rF	.	.	2r	.	.	.	.	.	.	.
8B\J	6	8dd\J	8gg\J	.	.	.	.	.	.	.	.	.	.	.	.	.	.
4A\	7	8cc\L	8gg\L	.	.	.	.	.	.	.	.	.	.	.	.	.	.
.	6	8a\J	8ff#X\J	.	.	.	.	.	.	.	.	.	.	.	.	.	.
=28	=28	=28	=28	=28	=28	=28	=28	=28	=28	=28	=28	=28	=28-	=28	=28	=28-	=28
4G\	.	8b\L	4gg\	4rA	.	.	4r	.	.	4r	.	.	4ree	.	.	4r	4r
.	.	8g\J	.	.	.	.	.	.	.	.	.	.	.	.	.	.	.
!LO:MO:mod=!LO&colon;TX&colon;a&colon;i&colon;t=Tutti	!	!	!	!	!	!	!	!	!	!	!	!	!	!	!	!	!
!LO:TX:a:t=Tut	!	!	!	!	!	!	!	!	!	!	!	!	!	!	!	!	!
8c\L	.	8ee\L	8gg\L	8c\	il-	Il-	8c\	-il-	-Il-	8g\	il-	Il-	8ee\	il-	Il-	8ee\L	8gg\L
8B\J	6	8dd\J	8gg\J	8B\	-luc	-lic,	8d\	-luc	-lic	8g\	-luc	-lic	8dd\	-luc	-lic,	8dd\J	8gg\
*	*	*	*	*	*ij	*ij	*	*	*	*	*	*	*	*ij	*ij	*	*
8c\L	.	8ee\L	8gg\L	8c\	il-	il-	8c\	e-	e-	8g\	e-	e-	8ee\	il-	il-	8ee\L	8ee\
8B\J	6	8dd\J	8gg\J	8B\	-luc	-lic	8d\	-nim	-nim,	8g\	-nim	-nim,	8dd\	-luc	-lic	8dd\J	8gg\J
*	*	*	*	*	*Xij	*Xij	*	*	*	*	*	*	*	*Xij	*Xij	*	*
!	!	!	!	!	!	!	!	!	!	!	!	!	!	!	!	!	!LO:LB:g=original
*	*	*	*	*	*	*	*	*ij	*ij	*	*	*	*	*	*	*	*
4A\	7	4cc\	8gg\L	4A\	e-	e-	4A/	e-	e-	4a\	e-	e-	4cc\	e-	e-	4cc\	8gg\L
.	6	.	8ff#X\J	.	.	.	.	.	.	.	.	.	.	.	.	.	8ff#X\J
=29	=29	=29	=29	=29	=29	=29	=29	=29	=29	=29	=29	=29	=29	=29	=29	=29	=29
4G\	.	4b\	4gg\	4G\	-nim	-nim	4B\	-nim	-nim	4d\	-nim	-nim	4b\	-nim	-nim	4g/	4gg\
*	*	*	*	*	*	*	*	*Xij	*Xij	*	*	*	*	*	*	*	*
!LO:MO:mod=!null:null	!	!	!LO:LB:g=original	!	!	!	!	!	!	!	!	!	!	!	!	!	!
*clefC4	*	*	*	*	*	*	*	*	*	*	*	*	*	*	*	*	*
8G/L	.	8gg\L	8b\L	4rF	.	.	8G/	as-	a-	4r	.	.	8b\	aſ-	a-	8g/L	8gg\L
8A/J	.	8gg\J	8cc\J	.	.	.	8A/	-cen-	-scen-	.	.	.	8cc\	-cen-	-scen-	8cc/J	8gg\J
8B\L	6	2gg\	8dd\L	2rF	.	.	8B\L	-de-	-de-	2rB	.	.	8dd\L	-de-	-de-	8dd\L	2gg\
16A\L	.	.	16cc\L	.	.	.	16A\L	.	.	.	.	.	16cc\L	.	.	16cc\L	.
16B\JJ	.	.	16dd\JJ	.	.	.	16B\JJ	.	.	.	.	.	16dd\JJ	.	.	16dd\JJ	.
8G/L	.	.	8b\L	.	.	.	8G\L	.	.	.	.	.	8b\L	.	.	8g\L	.
16A/L	.	.	16cc\L	.	.	.	16A\L	.	.	.	.	.	16cc\L	.	.	16cc\L	.
16B/JJ	.	.	16dd\JJ	.	.	.	16B\JJ	.	.	.	.	.	16dd\JJ	.	.	16dd\JJ	.
!	!	!	!	!	!	!	!	!	!	!LO:LB:g=original	!	!	!	!	!	!	!
=30	=30	=30	=30	=30	=30	=30	=30	=30	=30	=30	=30	=30	=30	=30	=30	=30	=30
4c\	.	4gg\	8ee\L	4rF	.	.	8c\	-runt	-runt	4r	.	.	8ee\	.	.	8ee\L	4gg\
.	.	.	8ee\J	.	.	.	8c\	tri-	tri-	.	.	.	8ee\	-runt	-runt	8cc\	.
!LO:LB:g=original	!	!	!	!	!	!	!	!	!	!	!	!	!	!	!	!	!
!LO:MO:mod=!null:null	!	!	!	!	!	!	!	!	!	!	!	!	!	!	!	!	!
*clefF4	*	*	*	*	*	*	*	*	*,	*	*	*	*	*	*	*	*
8C/L	.	8ee\L	8gg\L	8C/	as-	a-	2c\	-bus	-bus,	8e\	As-	a-	2ee\	tri-	tri-	8ee\	8gg\L
!	!	!	!	!	!	!	!	!	!	!	!	!	!	!	!	!LO:SIC:s=8dd\J:v	!
!	!	!LO:SIC:s=8dd\J:v	!	!	!	!	!	!	!	!	!	!	!	!	!	!	!
8D/J	.	8ee\J	8ff\J	8D/	-cen-	-scen-	.	.	.	8f\	-cen-	-scen-	.	.	.	8cc\J	8ff\J
!	!	!	!	!LO:LB:g=original	!	!	!	!	!	!	!	!	!	!	!	!	!
8E\L	.	2ee\	4ee\	8E\L	-de-	-de-	.	.	.	8g\L	-de-	-de-	.	.	.	4cc\	4ee\
16D\L	.	.	.	16D\L	.	.	.	.	.	16f\L	.	.	.	.	.	.	.
16E\JJ	.	.	.	16E\JJ	.	.	.	.	.	16g\JJ	.	.	.	.	.	.	.
*	*	*	*	*	*	*	*	*ij	*ij	*	*	*	*	*	*	*	*
8C/L	.	.	8ee\L	8C/L	.	.	4c\	tri-	tri-	8e\L	.	.	4ee\	-buſ	-bus,	8gg\L	8ee\L
16D/L	.	.	8dd\J	16D/L	.	.	.	.	.	16f\L	.	.	.	.	.	8gg\J	8dd\J
16E/JJ	.	.	.	16E/JJ	.	.	.	.	.	16g\JJ	.	.	.	.	.	.	.
!	!	!LO:LB:g=original	!	!	!	!	!	!	!	!	!	!	!	!LO:LB:g=original	!LO:LB:g=original	!	!
=31	=31	=31	=31	=31	=31	=31	=31	=31	=31	=31	=31	=31	=31	=31	=31	=31	=31
*	*	*	*	*	*	*	*	*	*	*	*	*	*	*ij	*ij	*	*
4F\	.	4cc\	8cc\L	8F\	.	.	4A\	-bus	-bus,	8a\	.	.	4cc\	tri-	tri-	4ff\	4cc\
.	.	.	8ff\J	8F\	-runt	-runt	.	.	.	8a\	-runt	-runt	.	.	.	.	.
4E\	6	4ee\	4gg\	8E\	tri-	tri-	4c\	tri-	tri-	8e\	tri-	tri-	4ee\	-buſ	-bus,	4gg\	4ee\
.	.	.	.	8E\	-bus	-bus,	.	.	.	8e\	-bus	-bus,	.	.	.	.	.
*	*	*	*	*	*ij	*ij	*	*	*	*	*ij	*ij	*	*	*	*	*
!	!	!LO:SIC:s=8cc\L:v	!	!	!	!	!	!	!	!	!	!	!	!	!	!	!
8F\L	.	8b\L	8aa\L	8F\	tri-	tri-	4c\	-bus	-bus	8f\	tri-	tri-	8a\	tri-	tri-	8aa\L	8cc\L
*	*	*	*	*	*	*	*	*Xij	*Xij	*	*	*	*	*	*	*	*
8D\J	.	8cc\J	8ee\J	8C/	-bus	-bus	.	.	.	8e\	-bus	-bus	8cc\	-buſ	-bus	8gg\J	8ee\J
*	*	*	*	*	*Xij	*Xij	*	*	*	*	*Xij	*Xij	*	*Xij	*Xij	*	*
!	!	!	!	!	!	!	!	!	!	!	!	!	!LO:LB:g=original	!	!	!	!
4G\	.	4b\	4dd\	8.G\	Do-	Do-	8d\	Do-	Do-	8.g\	Do-	Do-	8b\	Do-	Do-	4gg\	4dd\
.	.	.	.	.	.	.	8d\	-mi	-mi	.	.	.	8b\	-mi	-mi-	.	.
.	.	.	.	16GG/	-mi-	-mi-	.	.	.	16g\	-mi-	-mi-	.	.	.	.	.
=32	=32	=32	=32	=32	=32	=32	=32	=32	=32	=32	=32	=32	=32	=32	=32	=32	=32
4C/	.	4g/	4cc\	4C/	-ni	-ni	4e\	-ni	-ni,	4g\	-ni	-ni,	4cc\	-ni	-ni,	4ee\	4cc\
!	!	!	!	!	!	!	!LO:LB:g=original	!	!	!	!	!	!	!	!	!	!
8c\L	.	4r	4r	4r	.	.	8c\	tes-	tes-	8g\	tes-	tes-	8ee\	tes-	tes-	4r	4r
8B\J	.	.	.	.	.	.	8B\	-ti-	-ti-	8g\	-ti-	-ti-	8dd\	-ti-	-ti-	.	.
4c\	.	2rf	2ra	2rF	.	.	8.c\	-mo-	-mo-	8.g\	-mo-	-mo-	8ee\	-mo-	-mo-	2r	2ra
.	.	.	.	.	.	.	.	.	.	.	.	.	8cc\	-ni-	-ni-	.	.
.	.	.	.	.	.	.	16c\	-ni-	-ni-	16g\	-ni-	-ni-	.	.	.	.	.
4G\	.	.	.	.	.	.	4G/	-um	-um	4g\	-um	-um	(8dd\	-um	-um	.	.
.	.	.	.	.	.	.	.	.	.	.	.	.	8b\)	.	.	.	.
=33	=33	=33	=33	=33	=33	=33	=33	=33	=33	=33	=33	=33	=33	=33	=33	=33	=33
8d\L	.	2ra	2ra	2rF	.	.	8d\L	Is-	I-	8f#X\L	Is-	I-	8a\L	I-	I-	1r	1rcc
!LO:SIC:s=8d\J:v	!	!	!	!	!	!	!	!	!	!	!	!	!	!	!	!	!
!	!	!	!	!	!	!	!LO:SIC:s=8d\J:v	!	!	!	!	!	!	!	!	!	!
8c\J	.	.	.	.	.	.	8c\J	.	.	8g\J	.	.	8b\J	.	.	.	.
!LO:TX:t=P:problem=mixed beam	!	!	!	!	!	!	!	!	!	!	!	!	!	!	!	!	!
8d\L	.	.	.	.	.	.	8.d\	-ra-	-sra-	8g\	.	.	8.a\	.	.	.	.
!	!	!	!	!	!	!	!	!	!	!LO:LB:g=original	!	!	!	!	!	!	!
8D/J	.	.	.	.	.	.	.	.	.	8f#\	-ra-	-sra-	.	.	.	.	.
.	.	.	.	.	.	.	16D/	.	.	.	.	.	16b\	-sra-	-sra-	.	.
4G\	.	8r	8r	8rF	.	.	8G/	-el	-el,	8g\	-el	-el,	8b\	-el	-el,	.	.
.	.	8b\L	8dd\L	8G\	ad	ad	8d\	ad	ad	8g\	ad	ad	8b\	ad	ad	.	.
8G\L	.	8b\	8dd\	8G\	Con-	con-	8d\	Con-	con-	8g\	con-	con-	8b\	Con-	con-	.	.
8D\J	#	8a\J	8dd\J	8D/	-fi-	-fi-	8d\	-fi-	-fi-	8f#\	-fi-	-fi-	8a\	-fi-	-fi-	.	.
=34	=34	=34	=34	=34	=34	=34	=34	=34	=34	=34	=34	=34	=34	=34	=34	=34-	=34-
8G\L	.	8g\L	8b\L	8G\	-ten-	-ten-	8d\	-ten-	-ten-	8g\	-ten-	-ten-	8b\	-ten-	-ten-	8r	8r
8G\	.	8dd\	8gg\	8G\	-du(m)	-du(m),	8d\	-dum	-dum,	8g\	-dum	-dum,	8b\	-du(m)	-du(m),	8dd\L	8gg\L
!LO:SIC:s=8C\:v	!	!	!	!	!	!	!	!	!	!	!	!	!	!	!	!	!
8D\	.	8ee\	8gg\	4rG	.	.	4ryy	.	.	4r	.	.	4r	.	.	8ee\	8gg\
8G\J	.	8dd\J	8gg\J	.	.	.	.	.	.	.	.	.	.	.	.	8dd\J	8gg\J
!LO:TX:t=P:problem=mixed beam	!	!	!	!	!	!	!	!	!	!	!	!	!	!	!	!	!
8C/L	.	8cc\L	8ee\L	8rG	.	.	8r	.	.	8r	.	.	8rdd	.	.	8cc\L	8ee\L
8c\	.	8cc\	8ee\J	8c\	ad	ad	8e\	ad	ad	8g\	ad	ad	8cc\	ad	ad	8cc\J	8ee\J
8c\	.	8cc\	16gg\LL	8c\	Con-	con-	8e\	Con-	con-	8g\	Con-	Con-	8cc\	Con-	con-	4r	4r
.	.	.	16ff\	.	.	.	.	.	.	.	.	.	.	.	.	.	.
8G\J	.	8b\J	16gg\	8G\	-fi-	-fi-	8d\	-fi-	-fi-	8g\	-fi-	-fi-	8b\	-fi-	-fi-	.	.
.	.	.	16aa\JJ	.	.	.	.	.	.	.	.	.	.	.	.	.	.
!	!	!	!	!LO:LB:g=original	!	!	!	!	!	!	!	!	!LO:LB:g=original	!	!	!	!
=35	=35	=35	=35	=35	=35	=35	=35	=35	=35	=35	=35	=35	=35	=35	=35	=35	=35
8c\L	.	8cc\L	8gg\L	8c\	-ten-	-ten-	8e\	-ten-	-ten-	8g\	-ten-	-ten-	8cc\	-ten-	-ten-	8r	8r
8c\J	.	8ee\	8gg\	8c\	-du(m)	-du(m)	8e\	-dum	-dum	8g\	-dum	-dum	8cc\	-du(m)	-du(m)	8ee\L	8gg\L
8A\L	.	8ff\	8aa\	4r	.	.	4r	.	.	4r	.	.	4r	.	.	8ff\	8aa\
8c\J	.	8ee\J	8gg\J	.	.	.	.	.	.	.	.	.	.	.	.	8ee\J	8gg\J
4F\	6 5	8cc\L	8ff\L	8F\	no-	no-	8c\	no-	no-	8a\	no-	no-	8cc\	no-	no-	8cc\L	8ff\L
!	!	!LO:SIC:s=16a\L:v	!	!	!	!	!	!	!	!	!	!	!	!	!	!	!
!	!	!	!	!	!	!	!	!	!	!	!	!	!LO:SIC:s=16cc\:v	!	!	!	!
.	.	16b\L	8ff\J	16F\	-mi-	-mi-	16c\	-mi-	-mi-	16a\	-mi-	-mi-	16b\	-mi-	-mi-	8cc\J	8ff\J
.	.	16a\JJ	.	16F\	-ni	-ni	16c\	-ni	-ni	16a\	-ni	-ni	16a\	-ni	-ni	.	.
!	!	!	!LO:LB:g=original	!	!	!	!	!	!	!	!	!	!	!	!	!	!
4G\	.	8b\L	4dd\	8.G\	Do-	Do-	8.B\	Do-	Do-	8.g\	Do-	Do-	8.dd\	Do-	Do-	4g/	4dd\
.	.	8b\J	.	.	.	.	.	.	.	.	.	.	.	.	.	.	.
.	.	.	.	16G\	-mi-	-mi-	16B\	-mi-	-mi-	16g\	-mi-	-mi-	16dd\	-mi-	-mi-	.	.
!	!	!	!	!	!	!	!LO:LB:g=original	!	!	!	!	!	!	!	!	!	!LO:LB:g=original
=36	=36	=36	=36	=36	=36	=36	=36	=36	=36	=36	=36	=36	=36	=36	=36	=36	=36
4C/	.	4g/	4ee\	4C/	-ni	-ni.	4c\	-ni	-ni.	4e\	-ni	-ni.	4cc\	-ni	-ni.	4e/	4cc\
8A\L	.	4r	8.aa\L	8A\	qui-	Qui-	4r	.	.	4r	.	.	4r	.	.	4r	4r
8E\J	#	.	.	8E\	-a	-a	.	.	.	.	.	.	.	.	.	.	.
.	.	.	16gg#X\Jk	.	.	.	.	.	.	.	.	.	.	.	.	.	.
!LO:LB:g=original	!	!	!	!	!	!	!	!	!	!	!	!	!	!	!	!	!
4C/	6	2ra	8aa\L	4C/	Il-	il-	2rF	.	.	2r	.	.	2rcc	.	.	2ra	2ra
.	.	.	8ee\J	.	.	.	.	.	.	.	.	.	.	.	.	.	.
8AA/L	.	.	8cc\L	8AA/	-lic	-lic	.	.	.	.	.	.	.	.	.	.	.
8E/J	.	.	8ee\J	8E\	Se-	se-	.	.	.	.	.	.	.	.	.	.	.
!	!	!	!	!	!	!	!	!	!	!LO:LB:g=original	!	!	!	!	!	!	!
=37	=37	=37-	=37	=37	=37	=37	=37	=37	=37	=37	=37	=37	=37-	=37	=37	=37	=37
8C/L	6	2r	8a/L	8C/	-de-	-de-	00r	.	.	00r	.	.	00r	.	.	00r	00r
8AA/J	.	.	8a/J	8AA/	-runt	-runt	.	.	.	.	.	.	.	.	.	.	.
8A\L	.	.	8aa\L	4rF	.	.	.	.	.	.	.	.	.	.	.	.	.
8G#X\J	.	.	8ee\J	.	.	.	.	.	.	.	.	.	.	.	.	.	.
8A\L	.	8aa\L	8cc\L	4r	.	.	.	.	.	.	.	.	.	.	.	.	.
8E\J	.	8gg#X\J	8ee\J	.	.	.	.	.	.	.	.	.	.	.	.	.	.
8C/L	6	8aa\L	8a/L	4E\	Se-	se-	.	.	.	.	.	.	.	.	.	.	.
8E/J	.	8ee\J	8g#X/J	.	.	.	.	.	.	.	.	.	.	.	.	.	.
=38	=38	=38	=38	=38	=38	=38	=38	=38	=38	=38	=38	=38	=38	=38	=38	=38	=38
8AA/L	.	8cc\L	8a/L	1E	-des	-des,	.	.	.	.	.	.	.	.	.	.	.
8AA/J	.	8cc\J	8a/J	.	.	.	.	.	.	.	.	.	.	.	.	.	.
!	!	!LO:LB:g=original	!	!	!	!	!	!	!	!	!	!	!	!	!	!	!
4E\	#	8gg#X\L	8bb\L	.	.	.	.	.	.	.	.	.	.	.	.	.	.
.	.	8gg#\J	8bb\J	.	.	.	.	.	.	.	.	.	.	.	.	.	.
4E\	6 4	8aa\L	8ccc\L	.	.	.	.	.	.	.	.	.	.	.	.	.	.
.	.	8ccc\J	8aa\J	.	.	.	.	.	.	.	.	.	.	.	.	.	.
4E\	5 #3r	8gg#X\L	8bb\L	.	.	.	.	.	.	.	.	.	.	.	.	.	.
.	.	8bb\J	8gg#X\J	.	.	.	.	.	.	.	.	.	.	.	.	.	.
=39	=39	=39	=39	=39	=39	=39	=39	=39	=39	=39	=39	=39	=39	=39	=39	=39	=39
*	*	*	*	*	*ij	*ij	*	*	*	*	*	*	*	*	*	*	*
4E\	6 4	8aa\L	8aa\L	4E\	Se-	se-	.	.	.	.	.	.	.	.	.	.	.
.	.	8aa\J	8aa\J	.	.	.	.	.	.	.	.	.	.	.	.	.	.
4E\	5 #	4r	4r	4E\	-des	-des,	.	.	.	.	.	.	.	.	.	.	.
*	*	*	*	*	*Xij	*Xij	*	*	*	*	*	*	*	*	*	*	*
4C/	.	2ra	2ra	16C/LL	Se-	se-	.	.	.	.	.	.	.	.	.	.	.
.	.	.	.	16D/	.	.	.	.	.	.	.	.	.	.	.	.	.
.	.	.	.	16C/	.	.	.	.	.	.	.	.	.	.	.	.	.
.	.	.	.	16D/JJ	.	.	.	.	.	.	.	.	.	.	.	.	.
!LO:MO:mod=!null:null	!	!	!	!	!	!	!	!	!	!	!	!	!	!	!	!	!
!LO:TX:a:t=Tut	!	!	!	!	!	!	!	!	!	!	!	!	!	!	!	!	!
8r	.	.	.	16E\LL	.	.	.	.	.	.	.	.	.	.	.	.	.
.	.	.	.	16F\	.	.	.	.	.	.	.	.	.	.	.	.	.
!LO:MO:mod=!LO&colon;TX&colon;a&colon;i&colon;t=Tutti	!	!	!	!	!	!	!	!	!	!	!	!	!	!	!	!	!
!null	!	!	!	!	!	!	!	!	!	!	!	!	!	!	!	!	!
8E\	.	.	.	16E\	.	.	.	.	.	.	.	.	.	.	.	.	.
.	.	.	.	16F\JJ	.	.	.	.	.	.	.	.	.	.	.	.	.
!	!	!	!	!LO:LB:g=original	!	!	!	!	!	!	!	!	!	!	!	!	!
=40	=40	=40	=40	=40	=40	=40	=40	=40	=40	=40	=40	=40	=40	=40	=40	=40	=40
4G\	.	16g/LL	16b\LL	8G\	.	.	.	.	.	.	.	.	.	.	.	.	.
.	.	16a/	16cc\	.	.	.	.	.	.	.	.	.	.	.	.	.	.
.	.	16g/	16b\	8G\	-des	-des,	.	.	.	.	.	.	.	.	.	.	.
.	.	16a/JJ	16cc\JJ	.	.	.	.	.	.	.	.	.	.	.	.	.	.
4r	.	16b\LL	16dd\LL	4r	.	.	.	.	.	.	.	.	.	.	.	.	.
.	.	16cc\	16ee\	.	.	.	.	.	.	.	.	.	.	.	.	.	.
.	.	16b\	16dd\	.	.	.	.	.	.	.	.	.	.	.	.	.	.
.	.	16cc\JJ	16ee\JJ	.	.	.	.	.	.	.	.	.	.	.	.	.	.
!	!	!	!LO:TX:a:t=P:problem=brak drugiej połowy t.41 i pierwszej połowy t.42, dopisane na podstawie Wydawnictwa Dawnej Muzyki Polskiej PWM i ukryte	!	!	!	!	!	!	!	!	!	!	!	!	!	!
8D\	.	8dd\L	8ff\Lyy	16D/LL	Sae-	se-	.	.	.	.	.	.	.	.	.	.	.
.	.	.	.	16E/	.	.	.	.	.	.	.	.	.	.	.	.	.
8rG	.	8dd\J	8ff\Jyy	16D/	.	.	.	.	.	.	.	.	.	.	.	.	.
.	.	.	.	16E/JJ	.	.	.	.	.	.	.	.	.	.	.	.	.
8F\	.	4r	4ryy	16F\LL	.	.	.	.	.	.	.	.	.	.	.	.	.
.	.	.	.	16G\	.	.	.	.	.	.	.	.	.	.	.	.	.
8rA	.	.	.	16F\	.	.	.	.	.	.	.	.	.	.	.	.	.
.	.	.	.	16G\JJ	.	.	.	.	.	.	.	.	.	.	.	.	.
=41	=41	=41	=41	=41	=41	=41	=41-	=41	=41	=41-	=41	=41	=41-	=41	=41	=41	=41
4A\	.	16a/LL	16cc\Lyy	8A\	.	.	1r	.	.	0r	.	.	00r	.	.	00r	00r
.	.	16b/	16dd|yy	.	.	.	.	.	.	.	.	.	.	.	.	.	.
.	.	16a/	16cc\yy	8A\	-des	-des	.	.	.	.	.	.	.	.	.	.	.
.	.	16b/JJ	16dd\Jyy	.	.	.	.	.	.	.	.	.	.	.	.	.	.
4rA	.	16cc\LL	16ee\Lyy	4r	.	.	.	.	.	.	.	.	.	.	.	.	.
.	.	16dd\	16ff\yy	.	.	.	.	.	.	.	.	.	.	.	.	.	.
.	.	16cc\	16ee\yy	.	.	.	.	.	.	.	.	.	.	.	.	.	.
.	.	16dd\JJ	16ff\Jyy	.	.	.	.	.	.	.	.	.	.	.	.	.	.
8E\L	6	8ee\L	8gg\L	8E\	in	in	.	.	.	.	.	.	.	.	.	.	.
8G\	.	8dd\J	8gg\J	8G\	iu-	iu-	.	.	.	.	.	.	.	.	.	.	.
8.E\	6	4cc\	16gg\LL	8.E\	-di-	-di-	.	.	.	.	.	.	.	.	.	.	.
.	.	.	16aa\	.	.	.	.	.	.	.	.	.	.	.	.	.	.
.	.	.	16gg\	.	.	.	.	.	.	.	.	.	.	.	.	.	.
16D\Jk	.	.	16ff\JJ	16D/	-ci-	-ci-	.	.	.	.	.	.	.	.	.	.	.
=42	=42	=42	=42	=42	=42	=42	=42-	=42	=42	=42	=42	=42	=42	=42	=42	=42	=42
!LO:TX:t=P:problem=mixed beam	!	!	!	!	!	!	!	!	!	!	!	!	!	!	!	!	!
8C/L	.	16cc\LL	16ee\LL	8C/	-o	-um,	2r	.	.	.	.	.	.	.	.	.	.
.	.	16b\	16ff\	.	.	.	.	.	.	.	.	.	.	.	.	.	.
!	!	!	!	!LO:SIC:s=8c\:v	!	!	!	!	!	!	!	!	!	!	!	!	!
8c\J	.	16cc\	16ee\	8B\	Ju-	iu-	.	.	.	.	.	.	.	.	.	.	.
.	.	16dd\JJ	16ff\JJ	.	.	.	.	.	.	.	.	.	.	.	.	.	.
!	!	!	!LO:LB:g=original	!	!	!	!	!	!	!	!	!	!	!	!	!	!
4A\	.	4cc\	8gg\L	8.A\	-di-	-di-	.	.	.	.	.	.	.	.	.	.	.
.	.	.	8ff#X\J	.	.	.	.	.	.	.	.	.	.	.	.	.	.
.	.	.	.	16A\	-ci-	-ci-	.	.	.	.	.	.	.	.	.	.	.
!LO:MO:mod=!LO&colon;TX&colon;a&colon;i&colon;t=Solo	!	!	!	!	!	!	!	!	!	!	!	!	!	!	!	!	!
!LO:TX:a:t=Solo	!	!	!	!	!	!	!	!	!	!	!	!	!	!	!	!	!
4G\	7	4b\	4gg\	4G\	-o	-um,	8G/	Se-	Se-	.	.	.	.	.	.	.	.
.	6	.	.	.	.	.	8G/	-des	-des	.	.	.	.	.	.	.	.
8F\L	.	4r	4r	4r	.	.	8A/	Su-	su-	.	.	.	.	.	.	.	.
8D\J	6	.	.	.	.	.	8B\	-per	-per	.	.	.	.	.	.	.	.
!LO:LB:g=original	!	!	!	!	!	!	!	!	!	!	!	!	!	!	!	!	!
=43	=43	=43	=43	=43	=43	=43	=43	=43	=43	=43-	=43	=43	=43	=43	=43	=43	=43
4C/	.	00r	00r	8C/	Se-	se-	4.c\	Do-	do-	2r	.	.	.	.	.	.	.
.	.	.	.	8C/	-des	-des	.	.	.	.	.	.	.	.	.	.	.
8D/L	.	.	.	8D/	Su-	su-	.	.	.	.	.	.	.	.	.	.	.
8E/J	.	.	.	8E/	-per	-per	8B\	-mum	-mum	.	.	.	.	.	.	.	.
4F\	.	.	.	4.F\	do-	do-	8A\	Da-	Da-	8c\	ſe-	Se-	.	.	.	.	.
.	.	.	.	.	.	.	8A\	-vid	-vid,	8c\	-des	-des	.	.	.	.	.
4E\	.	.	.	.	.	.	8B\	Su-	su-	8d\	ſu-	su-	.	.	.	.	.
.	.	.	.	8E\	-mum	-mum	8c\	-per	-per	8e\	-per	-per	.	.	.	.	.
!	!	!	!	!LO:LB:g=original	!	!	!	!	!	!	!	!	!	!	!	!	!
=44	=44	=44	=44	=44	=44	=44	=44	=44	=44	=44	=44	=44	=44	=44	=44	=44	=44
4D\	.	.	.	4D/	Da-	Da-	4.d\	Do-	do-	4.f\	Do-	do-	.	.	.	.	.
8r	.	.	.	4D/	-vit	-vid,	.	.	.	.	.	.	.	.	.	.	.
8D\	.	.	.	.	.	.	8c\	.	.	8e\	.	.	.	.	.	.	.
4G\	.	.	.	8G\	do-	do-	8B\	-mum	-mum	8d\	-mu(m)	-mu(m)	.	.	.	.	.
.	.	.	.	8G\	-mu(m)	-mu(m)	8d\	Da-	Da-	8g\	Da-	Da-	.	.	.	.	.
4A\	#	.	.	4A\	Da-	Da-	(4c#X\	-vid	-vid.	(4e\	-vid	-vid.	.	.	.	.	.
=45	=45	=45	=45	=45	=45	=45	=45	=45	=45	=45	=45	=45	=45	=45	=45	=45	=45
4D/	.	.	.	4D/	-vit	-vid.	4d\)	.	.	4d\)	.	.	2a\	Ro-	Ro-	00r	00r
8A\L	6	.	.	4rF	.	.	4r	.	.	2f\	Ro-	Ro-	.	.	.	.	.
8B-X\J	.	.	.	.	.	.	.	.	.	.	.	.	.	.	.	.	.
4c\	.	.	.	2rF	.	.	2r	.	.	.	.	.	2g/	.	.	.	.
8G\L	6	.	.	.	.	.	.	.	.	4e\	.	.	.	.	.	.	.
8A\J	.	.	.	.	.	.	.	.	.	.	.	.	.	.	.	.	.
=46	=46	=46	=46	=46-	=46	=46	=46	=46	=46	=46	=46	=46	=46	=46	=46	=46	=46
!LO:SIC:s=4B-:v	!	!	!	!	!	!	!	!	!	!	!	!	!	!	!	!	!
4B\	6 4	.	.	00r	.	.	1r	.	.	(4e\	.	.	2f/	.	.	.	.
8F\L	.	.	.	.	.	.	.	.	.	2d\	.	.	.	.	.	.	.
8G\J	.	.	.	.	.	.	.	.	.	.	.	.	.	.	.	.	.
!LO:TX:t=P:problem=mixed beam	!	!	!	!	!	!	!	!	!	!	!	!	!	!	!	!	!
8A\L	4	.	.	.	.	.	.	.	.	.	.	.	2e/	-ga-	-ga-	.	.
8G\	#	.	.	.	.	.	.	.	.	.	.	.	.	.	.	.	.
8A\	.	.	.	.	.	.	.	.	.	4c#X\)	-ga-	-ga-	.	.	.	.	.
8AA/J	.	.	.	.	.	.	.	.	.	.	.	.	.	.	.	.	.
!	!	!LO:LB:g=original	!	!	!	!	!	!	!	!	!	!	!	!	!	!	!
=47	=47	=47	=47-	=47	=47	=47	=47-	=47	=47	=47	=47	=47	=47	=47	=47	=47	=47
4D/	.	4r	2aa\	.	.	.	4r	.	.	4d\	-te	-te,	4d/	-te	-te,	.	.
8A\L	5	2ff\	.	.	.	.	8A\	quae	quae	4r	.	.	4r	.	.	.	.
8B-X\J	.	.	.	.	.	.	8B-X\	ad	ad	.	.	.	.	.	.	.	.
!	!	!	!	!	!	!	!LO:LB:g=original	!	!	!	!	!	!	!	!	!	!
4c\	6 4	.	2gg\	.	.	.	8c\	pa-	pa-	2r	.	.	2rf	.	.	.	.
.	.	.	.	.	.	.	8c\	-cem	-cem,	.	.	.	.	.	.	.	.
*	*	*	*	*	*	*	*	*ij	*ij	*	*	*	*	*	*	*	*
8G\L	6 -	4ee\	.	.	.	.	8G/	quae	quae	.	.	.	.	.	.	.	.
8A\J	.	.	.	.	.	.	8A/	ad	ad	.	.	.	.	.	.	.	.
!	!	!	!	!	!	!	!	!	!	!LO:LB:g=original	!	!	!	!	!	!	!
=48	=48	=48	=48	=48	=48	=48	=48	=48	=48	=48	=48	=48	=48	=48	=48	=48	=48
4B-X\	6 4	4ee\	4ff\	.	.	.	8B-X\	pa-	pa-	2f\	Ro-	ro-	4rcc	.	.	.	.
.	.	.	.	.	.	.	8B-\	-cem	-cem	.	.	.	.	.	.	.	.
*	*	*	*	*	*	*	*	*Xij	*Xij	*	*	*	*	*	*	*	*
8F\L	.	2dd\	8dd\L	.	.	.	8F/	Sunt	sunt	.	.	.	4dd\	ro-	ro-	.	.
8G\J	.	.	8gg\J	.	.	.	8G/	Je-	Je-	.	.	.	.	.	.	.	.
!LO:TX:t=P:problem=mixed beam	!	!	!	!	!	!	!	!	!	!	!	!	!	!	!	!	!
8A\L	6 4	.	2ee\	.	.	.	8A/L	-ru-	-ru-	2e\	-ga-	-ga-	(4dd\	-ga-	-ga-	.	.
8G\	.	.	.	.	.	.	8G/J	.	.	.	.	.	.	.	.	.	.
8A\	4	4cc#X\	.	.	.	.	8.A/	-ſa-	-sa-	.	.	.	4cc#X\)	.	.	.	.
8AA/J	#	.	.	.	.	.	.	.	.	.	.	.	.	.	.	.	.
.	.	.	.	.	.	.	(16A/	-lem	-lem	.	.	.	.	.	.	.	.
=49	=49	=49	=49	=49	=49	=49	=49	=49	=49	=49	=49	=49	=49	=49	=49	=49	=49
8D\L	.	8dd\L	4dd\	.	.	.	4D/)	.	.	4f#X\	-te	-te	8dd\	-te	-te	00r	00r
8E\J	.	8dd\	.	.	.	.	.	.	.	.	.	.	8dd\	et	et	.	.
!LO:LB:g=original	!	!	!	!	!	!	!	!	!	!	!	!	!	!	!	!	!
8F#X\L	.	8dd\	8r	.	.	.	4r	.	.	4r	.	.	8dd\	a-	a-	.	.
8D\J	.	8dd\J	8dd\	.	.	.	.	.	.	.	.	.	8dd\	-bun-	-bun-	.	.
!	!	!	!	!	!	!	!	!	!	!	!	!	!LO:LB:g=original	!	!	!	!
8G\L	.	16b\LL	8dd\L	.	.	.	8r	.	.	2r	.	.	16b\LL	-dan-	-dan-	.	.
.	.	16cc\	.	.	.	.	.	.	.	.	.	.	16cc\	.	.	.	.
8F#X\	.	16dd\	8dd\J	.	.	.	8d\	-et	-et	.	.	.	16dd\	.	.	.	.
.	.	16cc\JJ	.	.	.	.	.	.	.	.	.	.	16cc\JJ	.	.	.	.
8G\	.	16b\LL	16b\LL	.	.	.	8d\	a-	a-	.	.	.	16b\LL	.	.	.	.
.	.	16cc\	16cc\	.	.	.	.	.	.	.	.	.	16cc\	.	.	.	.
8D\J	.	16a\	16dd\	.	.	.	8d\	-bun-	-bun-	.	.	.	16a\	.	.	.	.
!	!	!	!LO:SIC:s=16b\JJ:v	!	!	!	!	!	!	!	!	!	!	!	!	!	!
.	.	16b\JJ	16cc\JJ	.	.	.	.	.	.	.	.	.	16b\JJ	.	.	.	.
=50	=50	=50	=50	=50-	=50	=50	=50	=50	=50	=50	=50	=50	=50	=50	=50	=50	=50
!	!	!	!	!	!	!	!	!	!	!	!	!	!LO:MO:mod=!null:null	!	!	!	!
!	!	!	!	!	!	!	!	!	!	!	!	!	!LO:N:vis=4.	!	!	!	!
4G\	.	8g/L	8b/L	8rG	.	.	16B\LL	-dan-	-dan-	2r	.	.	8.g/	.	.	.	.
.	.	.	.	.	.	.	16c\	.	.	.	.	.	.	.	.	.	.
.	.	8g/	8g/J	8G\	et	Et	16d\	.	.	.	.	.	.	.	.	.	.
.	.	.	.	.	.	.	16c\JJ	.	.	.	.	.	16g/	-ti-	-ti-	.	.
8r	.	8g/	16gg\LL	8G\	a-	a-	16B\LL	.	.	.	.	.	4g/	-a	-a,	.	.
.	.	.	16gg\	.	.	.	16c\	.	.	.	.	.	.	.	.	.	.
!	!	!	!	!	!	!	!LO:SIC:s=16d\:v	!	!	!	!	!	!	!	!	!	!
8G\	.	8b/J	16gg\	8G\	-bun-	-bun-	16A\	.	.	.	.	.	.	.	.	.	.
.	.	.	16gg\JJ	.	.	.	16B\JJ	.	.	.	.	.	.	.	.	.	.
4E\	6	8cc\L	16gg\LL	16E\LL	-dan-	-dan-	8.G/	.	.	8r	.	.	8cc\	a-	a-	.	.
.	.	.	16ff\	16F\	.	.	.	.	.	.	.	.	.	.	.	.	.
.	.	8cc\J	16ee\	16G\	.	.	.	.	.	8g\	et	et	8cc\	-bun-	-bun-	.	.
.	.	.	16dd\JJ	16F\JJ	.	.	16G/	-ti-	-ti-	.	.	.	.	.	.	.	.
8r	.	4cc\	16cc\LL	16E\LL	.	.	4G/	-a	-a	8g\	a-	a-	8.cc\	-dan-	-dan-	.	.
.	.	.	16dd\	16F\	.	.	.	.	.	.	.	.	.	.	.	.	.
!	!	!	!	!LO:SIC:s=16G\:v	!	!	!	!	!	!	!	!	!	!	!	!	!
8E\	6	.	16ee\	16D\	.	.	.	.	.	8g\	-bun-	-bun-	.	.	.	.	.
.	.	.	16ff\JJ	16E\JJ	.	.	.	.	.	.	.	.	16cc\	-ti-	-ti-	.	.
!	!	!	!	!	!	!	!LO:LB:g=original	!	!	!	!	!	!	!	!	!	!
=51	=51	=51	=51	=51	=51	=51	=51	=51	=51	=51	=51	=51	=51	=51	=51	=51	=51
4C/	.	4cc\	8ee\L	8C/	.	.	4c\	Di-	di-	16e\LL	-dan-	-dan-	4cc\	-a	-a,	.	.
.	.	.	.	.	.	.	.	.	.	16f\	.	.	.	.	.	.	.
.	.	.	8cc\	16C/	-ti-	-ti-	.	.	.	16g\	.	.	.	.	.	.	.
.	.	.	.	16C/	-a	-a	.	.	.	16f\JJ	.	.	.	.	.	.	.
!	!	!	!	!	!	!	!LO:SIC:s=8G\:v	!	!	!	!	!	!	!	!	!	!
8E\L	5	8cc\L	8gg\	8E\	di-	di-	8A\	-li-	-li-	8e\	-ti-	-ti-	8g/	di-	di-	.	.
!	!	!	!	!	!	!	!LO:SIC:s=8A/:v	!	!	!	!	!	!	!	!	!	!
8F#X\J	6	8dd\J	8dd\J	8F#X\	-li-	-li-	8G/	-gen-	-gen-	16d\	-a	-a	8a\	-li-	-li-	.	.
.	.	.	.	.	.	.	.	.	.	16d\	di-	di-	.	.	.	.	.
!LO:TX:t=P:problem=mixed beam	!	!	!	!	!	!	!	!	!	!	!	!	!	!	!	!	!
!	!	!	!	!	!	!	!LO:SIC:s=4B\:v	!	!	!	!	!	!	!	!	!	!
8G\L	.	8b\L	8gg\L	8G\	-gen-	-gen-	4c\	-ti-	-ti-	8g\	.	.	8b\	-gen-	-gen-	.	.
!	!	!	!	!LO:SIC:s=8BB/:v	!	!	!	!	!	!	!	!	!	!	!	!	!
8BB/J	.	8g\J	8g\J	8C/	-ti-	-ti-	.	.	.	8e\	-li-	-li-	8g/	-ti-	-ti-	.	.
4D/	.	4f#X/	4dd\	4D/	-bus	-bus	4A/	-bus	-bus	8d\	-gen-	-gen-	4f#X/	-bus	-bus	.	.
.	.	.	.	.	.	.	.	.	.	16d\	-ti-	-ti-	.	.	.	.	.
.	.	.	.	.	.	.	.	.	.	16d\	-bus	-bus	.	.	.	.	.
!	!	!	!	!LO:LB:g=original	!	!	!	!	!	!	!	!	!	!	!	!	!
=52	=52	=52	=52	=52	=52	=52	=52	=52	=52	=52	=52	=52	=52	=52	=52	=52	=52
!	!	!	!	!	!	!	!LO:TX:a:t=P:problem=nuta niewyraźna	!	!	!	!	!	!	!	!	!	!
!	!	!	!	!	!	!	!LO:SIC:s=4B\:v	!	!	!	!	!	!	!	!	!	!
4GG/	.	4g/	4dd\	4GG/	te'	te.	4c\	te	te.	4d\	te	te.	4g/	te	te.	.	.
8G\L	.	8gg\L	8b/L	8G\	fi-	Fi-	8d\	fi-	Fi-	8g\	fi-	Fi-	8b\	fi-	Fi-	.	.
8F#X\J	6	8aa\J	8a/J	8F#X\	-at	-at,	8d\	-at	-at,	8d\	-at	-at,	8a\	-at	-at,	.	.
*	*	*	*	*	*	*	*	*	*	*custos	*	*	*	*	*	*	*
!	!	!	!LO:LB:g=original	!	!	!	!	!	!	!LO:PB:g=original	!	!	!	!	!	!	!
*	*	*	*	*	*ij	*ij	*	*ij	*ij	*	*	*	*	*	*	*	*
8G\L	.	8gg\L	8b/L	8G\	fi-	fi-	8d\	fi-	fi-	8g\	fi-	fi-	8b\	fi-	fi-	.	.
8D\J	#	8aa\J	8a/	8D/	-at	-at	8d\	-at	-at	8f#X\	-at	-at	8a\	-at	-at	.	.
*	*	*	*	*	*Xij	*Xij	*	*Xij	*Xij	*	*	*	*	*	*	*	*
!	!	!LO:TX:t=P:problem=mixed beam	!	!	!	!	!	!	!	!	!	!	!	!	!	!	!
4G\	.	8gg\L	8b/	4G\	pax	pax,	4d\	pax	pax,	4g\	pax	pax,	4b\	pax	pax,	.	.
.	.	8g/J	8g/J	.	.	.	.	.	.	.	.	.	.	.	.	.	.
!	!	!LO:LB:g=original	!	!	!	!	!	!	!	!	!	!	!LO:LB:g=original	!	!	!	!
=53	=53	=53	=53	=53	=53	=53	=53	=53	=53	=53	=53	=53	=53	=53	=53	=53-	=53
*	*	*	*	*	*	*	*	*	*	*	*ij	*ij	*	*	*	*	*
8c\L	.	8ee\L	8gg\L	8c\	fi-	fi-	8e\	fi-	fi-	8g\	fi-	fi-	8ee\	fi-	fi-	8r	8gg\L
8B\	6	8dd\	8gg\	8B\	-at	-at,	8B\	-at	-at,	8g\	-at	-at,	8dd\	-at	-at,	8dd\L	8gg\
*	*	*	*	*	*ij	*ij	*	*ij	*ij	*	*	*	*	*ij	*ij	*	*
8c\	.	8ee\	8gg\	8c\	fi-	fi-	8e\	fi-	fi-	8g\	fi-	fi-	8ee\	fi-	fi-	8ee\	8gg\
8G\J	.	8dd\J	8gg\J	8G\	-at	-at	8B\	-at	-at	8g\	-at	-at	8dd\	-at	-at	8dd\J	8gg\J
*	*	*	*	*	*Xij	*Xij	*	*Xij	*Xij	*	*	*	*	*Xij	*Xij	*	*
4c\	.	8cc\L	8gg\L	4c\	pax	pax,	4c\	pax	pax,	4e\	pax	pax	4cc\	pax	pax	8cc\L	8gg\L
*	*	*	*	*	*	*	*	*	*	*	*Xij	*Xij	*	*	*	*	*
.	.	8g\J	8ee\J	.	.	.	.	.	.	.	.	.	.	.	.	8cc\J	8ee\J
4E\	6	4r	4r	4rA	.	.	4r	.	.	4r	.	.	(16cc\LL	in	in	4r	4r
.	.	.	.	.	.	.	.	.	.	.	.	.	16dd\JJ)	.	.	.	.
.	.	.	.	.	.	.	.	.	.	.	.	.	(16cc\LL	vir-	vir-	.	.
.	.	.	.	.	.	.	.	.	.	.	.	.	16b\JJ)	.	.	.	.
=54	=54	=54	=54	=54-	=54	=54	=54	=54	=54	=54	=54	=54	=54	=54	=54	=54	=54
!	!	!	!	!LO:MO:mod=!null:null	!	!	!	!	!	!	!	!	!	!	!	!	!
!	!	!	!	!LO:TX:a:t=1	!	!	!	!	!	!	!	!	!	!	!	!	!
4F\	.	1r	1r	1rA	.	.	1r	.	.	(16f\LL	In	in	4a\	-tu-	-tu-	1rcc	1r
.	.	.	.	.	.	.	.	.	.	16g\JJ)	.	.	.	.	.	.	.
.	.	.	.	.	.	.	.	.	.	(16f\LL	vir-	vir-	.	.	.	.	.
.	.	.	.	.	.	.	.	.	.	16e\JJ)	.	.	.	.	.	.	.
4G\	.	.	.	.	.	.	.	.	.	8d\	-tu-	-tu-	8b\	-te	-te,	.	.
.	.	.	.	.	.	.	.	.	.	8g\	-te	-te	8b\	vir-	vir-	.	.
8A\L	.	.	.	.	.	.	.	.	.	8e\L	tu-	tu-	8cc\	-tu-	-tu-	.	.
8F\J	6	.	.	.	.	.	.	.	.	(16f\L	.	.	8cc\	-te	-te	.	.
.	.	.	.	.	.	.	.	.	.	16e\JJ	.	.	.	.	.	.	.
!LO:TX:t=P:problem=mixed beam	!	!	!	!	!	!	!	!	!	!	!	!	!	!	!	!	!
8G\L	.	.	.	.	.	.	.	.	.	(<4d\	-a	-a,	4b\	tu-	tu-	.	.
8GG/J	.	.	.	.	.	.	.	.	.	.	.	.	.	.	.	.	.
!LO:LB:g=original	!	!	!	!	!	!	!	!	!	!	!	!	!	!LO:LB:g=original	!LO:LB:g=original	!	!
=55	=55	=55	=55-	=55-	=55	=55	=55-	=55	=55	=55	=55	=55	=55	=55	=55	=55	=55-
!LO:MO:mod=!LO&colon;TX&colon;a&colon;i&colon;t=Tutti	!	!	!	!	!	!	!	!	!	!	!	!	!	!	!	!	!
!LO:TX:b:t=Tut	!	!	!	!	!	!	!	!	!	!	!	!	!	!	!	!	!
4C/	.	4r	2ra	4rF	.	.	4r	.	.	4e\))	.	.	4cc\	-a	-a	4r	4r
8G\L	.	8gg\L	.	8G\	Fi-	fi-	8B\	fi-	fi-	8g\	fi-	fi-	4r	.	.	8dd\L	8gg\L
8F#X\J	.	8aa\J	.	8F#X\	-at	-at,	8c\	-at	-at,	8d\	-at	-at,	.	.	.	8dd\	8aa\J
*	*	*	*	*	*ij	*ij	*	*	*	*	*	*	*	*	*	*	*
8G\L	.	8gg\L	8r	8G\	fi-	fi-	8B\	fi-	fi-	8g\	fi-	fi-	4dd\	et	et	8dd\	8gg\L
8D\J	.	8aa\	8dd\L	8D/	-at	-at	8A\	-at	-at	8f#X\	-at	-at	.	.	.	8dd\J	8aa\
*	*	*	*	*	*Xij	*Xij	*	*	*	*	*	*	*	*	*	*	*
4G\	.	8bb\	8dd\	4G\	pax	pax	4G/	pax	pax	4g\	pax	pax	8dd\	a-	a-	4dd\	8bb\
.	.	8gg\J	8dd\J	.	.	.	.	.	.	.	.	.	8dd\	-bun-	-bun-	.	8gg\J
!	!	!	!	!	!	!	!LO:PB:g=original	!	!	!	!	!	!	!	!	!	!
=56	=56	=56	=56	=56	=56	=56	=56	=56	=56	=56	=56	=56	=56	=56	=56	=56	=56
8G\L	.	8bb\L	16b\LL	2rF	.	.	8r	.	.	1r	.	.	16b\LL	-dan-	-dan-	2ra	2ra
.	.	.	16cc\	.	.	.	.	.	.	.	.	.	16cc\	.	.	.	.
8F#X\J	.	8aa\	16dd\	.	.	.	8d\	et	et	.	.	.	16dd\	.	.	.	.
.	.	.	16cc\JJ	.	.	.	.	.	.	.	.	.	16cc\JJ	.	.	.	.
8G\L	.	8gg\	16b\LL	.	.	.	8d\	a-	a-	.	.	.	16b\LL	.	.	.	.
.	.	.	16cc\	.	.	.	.	.	.	.	.	.	16cc\	.	.	.	.
8D\J	.	8aa\J	16a\	.	.	.	8d\	-bun-	-bun-	.	.	.	16a\	.	.	.	.
.	.	.	16b\JJ	.	.	.	.	.	.	.	.	.	16b\JJ	.	.	.	.
4GG/	.	8bb\L	8g/L	8rc	.	.	16B\LL	-dan-	-dan-	.	.	.	8.g/	.	.	8r	8r
.	.	.	.	.	.	.	16c\	.	.	.	.	.	.	.	.	.	.
.	.	8gg\J	8g/	8G\	et	et	16d\	.	.	.	.	.	.	.	.	8g/L	8dd\L
.	.	.	.	.	.	.	16c\JJ	.	.	.	.	.	16g/	-ti-	-ti-	.	.
8r	.	8r	8g/	8G\	a-	a-	16B\LL	.	.	.	.	.	8g/	-a	-a	8g/	8dd\
.	.	.	.	.	.	.	16c\	.	.	.	.	.	.	.	.	.	.
8G\	.	8gg\	8g/J	8G\	-bun-	-bun-	16A\	.	.	.	.	.	8g/	in	in	8g/J	8dd\J
.	.	.	.	.	.	.	16B\JJ	.	.	.	.	.	.	.	.	.	.
!	!	!	!	!	!	!	!	!	!	!	!	!	!LO:LB:g=original	!	!	!	!
=57	=57	=57	=57	=57	=57	=57	=57	=57	=57	=57-	=57	=57	=57	=57	=57	=57	=57
4E\	.	8gg\L	8cc\L	16E\LL	-dan-	-dan-	8.G/	-ti-	-ti-	8r	.	.	8.cc\	tur-	tur-	4cc\	8ee\L
.	.	.	.	16F\	.	.	.	.	.	.	.	.	.	.	.	.	.
.	.	8gg\J	8cc\J	16G\	.	.	.	.	.	8g\	et	et	.	.	.	.	8ee\J
.	.	.	.	16F\JJ	.	.	16G/	.	.	.	.	.	16cc\	-ri-	-ri-	.	.
!	!	!	!	!LO:LB:g=original	!	!	!	!	!	!LO:LB:g=original	!	!	!	!	!	!	!
8r	.	16gg\LL	8cc\L	16E\LL	.	.	8G/	-a	-a,	8g\	a-	a-	4cc\	-buſ	-bus,	4cc\	4ee\
.	.	16ff\	.	16F\	.	.	.	.	.	.	.	.	.	.	.	.	.
!	!	!	!	!LO:SIC:s=16G\:v	!	!	!	!	!	!	!	!	!	!	!	!	!
8E\	.	16ee\	8cc\J	16D\	.	.	8G/	et	et	8g\	-bun-	-bun-	.	.	.	.	.
.	.	16dd\JJ	.	16E\JJ	.	.	.	.	.	.	.	.	.	.	.	.	.
4C/	.	8ee\L	8r	8.C/	.	.	8c\	a-	a-	16e\LL	-dan-	-dan-	8ree	.	.	8r	8r
.	.	.	.	.	.	.	.	.	.	16f\	.	.	.	.	.	.	.
.	.	8cc\J	8gg\L	.	.	.	8e\	-bun-	-bun-	16g\	.	.	8gg\	et	et	8ee\L	8gg\L
.	.	.	.	16C/	-ti-	-ti-	.	.	.	16f\JJ	.	.	.	.	.	.	.
8C/L	.	8gg\L	8gg\	8C/	-a	-a	8.c\	-dan-	-dan-	16e\LL	.	.	8gg\	a-	a-	8ee\	8gg\
.	.	.	.	.	.	.	.	.	.	16f\	.	.	.	.	.	.	.
!	!	!	!	!	!	!	!	!	!	!LO:SIC:s=16g\:v	!	!	!	!	!	!	!
8E/J	6	8ee\J	8gg\J	8E\	in	in	.	.	.	16d\	.	.	8gg\	-bun-	-bun-	8cc\J	8gg\J
!	!	!	!	!	!	!	!LO:SIC:s=16c\:v	!	!	!	!	!	!	!	!	!	!
.	.	.	.	.	.	.	16B\	-ti-	-ti-	16e\JJ	.	.	.	.	.	.	.
=58	=58	=58	=58	=58	=58	=58	=58	=58	=58	=58	=58	=58	=58	=58	=58	=58	=58
4F\	.	16aa\LL	16ff\LL	8.F\	tur-	tur-	8A\	-a'	-a	8.c\	-ti-	-ti-	8.ff\	-dan-	-dan-	16ff\LL	8aa\L
.	.	16aa\	16ff\	.	.	.	.	.	.	.	.	.	.	.	.	16ff\	.
.	.	16aa\	16ff\	.	.	.	8B\	in	in	.	.	.	.	.	.	16ff\	8aa\
.	.	16aa\JJ	16ff\JJ	16F\	.	.	.	.	.	16c\	-a	-a	16ff\	-ti-	-ti-	16ff\JJ	.
!	!	!	!	!LO:SIC:s=4C/:v	!	!	!	!	!	!	!	!	!	!	!	!	!LO:SIC:s=8gg\:v
4C/	.	8gg\L	8ee\L	4BB/	-ri-	-ri-	8c\	tur-	tur-	8c\	in	in	8ee\	-a	-a	8ee\L	8aa\
!	!	!	!	!	!	!	!	!	!	!	!	!	!	!	!	!	!LO:SIC:s=8ggJ\:v
.	.	8gg\J	8ee\	.	.	.	16c\	-ri-	-ri-	8e\	.	.	8ee\	in	in	8ee\	8aa\J
.	.	.	.	.	.	.	16c\	-bus	-bus	.	.	.	.	.	.	.	.
!	!	!	!	!	!	!	!LO:SIC:s=4d\:v	!	!	!	!	!	!	!	!	!	!LO:SIC:s=8ff\L:v
4F\	6 5	8ff\L	8dd\	4F\	-bus	-bus	4c\	.	.	8a\	tur-	tur-	8dd\	tur-	tur-	8dd\	8gg\L
!	!	!	!	!	!	!	!	!	!	!	!	!	!	!	!	!	!LO:SIC:s=8ff\:v
.	.	8ff\J	8dd\J	.	.	.	.	.	.	16a\	-ri-	-ri-	16dd\	-ri-	-ri-	8cc\J	8gg\
.	.	.	.	.	.	.	.	.	.	16a\	-bus	-bus	16dd\	-bus	-bus	.	.
!	!	!LO:LB:g=original	!LO:LB:g=original	!	!	!	!	!	!	!	!	!	!	!	!	!	!
4G\	.	8dd\L	4dd\	4G\	tu-	tu-	4B\	tu-	tu-	4g\	tu-	tu-	4dd\	tu-	tu-	4g/	8ff\
.	.	8dd\J	.	.	.	.	.	.	.	.	.	.	.	.	.	.	8ff\J
!	!	!	!	!	!	!	!	!	!	!	!	!	!	!	!	!	!LO:LB:g=original
=59	=59	=59	=59	=59	=59	=59	=59	=59	=59	=59	=59	=59	=59	=59	=59	=59	=59
4C/	.	4ee\	4cc\	4C/	-is	-is.	4c\	-is	-is.	4e\	-is	-is.	4ee\	-us	-is.	4e/	4cc\
8A\L	.	4r	4r	4r	.	.	4r	.	.	4r	.	.	8cc\	p(ro)-	P(ro)-	4r	4r
8G#X\J	6	.	.	.	.	.	.	.	.	.	.	.	8b\	-pter	-pter	.	.
8A\L	.	2r	2ra	2r	.	.	2r	.	.	2r	.	.	8cc\	fra-	fra-	2ra	2ra
8F\J	.	.	.	.	.	.	.	.	.	.	.	.	8a\	-tres	-tres	.	.
4D/	.	.	.	.	.	.	.	.	.	.	.	.	4b\	me-	me-	.	.
!	!	!	!	!	!	!	!LO:LB:g=original	!	!	!	!	!	!	!	!	!	!
=60	=60	=60-	=60	=60-	=60	=60	=60	=60	=60	=60	=60	=60	=60	=60	=60	=60	=60
8E\L	.	0r	0ra	00r	.	.	00r	.	.	00r	.	.	8b\	-os	-os	00r	00r
8G#X\J	.	.	.	.	.	.	.	.	.	.	.	.	8ee\	et	et	.	.
!	!	!	!	!	!	!	!	!	!	!	!	!	!LO:LB:g=original	!	!	!	!
8A\L	.	.	.	.	.	.	.	.	.	.	.	.	16cc\LL	pro-	pro-	.	.
.	.	.	.	.	.	.	.	.	.	.	.	.	16dd\	.	.	.	.
16A\L	.	.	.	.	.	.	.	.	.	.	.	.	16cc\	.	.	.	.
16G#\JJ	.	.	.	.	.	.	.	.	.	.	.	.	16b\JJ	.	.	.	.
!LO:PB:g=original	!	!	!	!	!	!	!	!	!	!	!	!	!	!	!	!	!
!LO:SIC:s=8F\L:v	!	!	!	!	!	!	!	!	!	!	!	!	!	!	!	!	!
8G#\L	.	.	.	.	.	.	.	.	.	.	.	.	8a\L	.	.	.	.
8D\J	.	.	.	.	.	.	.	.	.	.	.	.	16dd\L	.	.	.	.
.	.	.	.	.	.	.	.	.	.	.	.	.	16cc\JJ	.	.	.	.
8G#\L	.	.	.	.	.	.	.	.	.	.	.	.	16b\LL	.	.	.	.
.	.	.	.	.	.	.	.	.	.	.	.	.	16cc\	.	.	.	.
16G#\L	.	.	.	.	.	.	.	.	.	.	.	.	16b\	.	.	.	.
16F#X\JJ	.	.	.	.	.	.	.	.	.	.	.	.	16a\JJ	.	.	.	.
=61	=61	=61	=61	=61	=61	=61	=61	=61	=61	=61	=61	=61	=61	=61	=61	=61	=61
8E\L	.	.	.	.	.	.	.	.	.	.	.	.	8.g/	.	.	.	.
8F#X\	.	.	.	.	.	.	.	.	.	.	.	.	.	.	.	.	.
.	.	.	.	.	.	.	.	.	.	.	.	.	16f#X/	-xi-	-xi-	.	.
8G\	.	.	.	.	.	.	.	.	.	.	.	.	8e/	-mos	-mos,	.	.
8A\J	.	.	.	.	.	.	.	.	.	.	.	.	8ee\	-et	-et	.	.
8B\L	#	.	.	.	.	.	.	.	.	.	.	.	8dd#X\	pro-	pro-	.	.
8c\	.	.	.	.	.	.	.	.	.	.	.	.	16dd#\	-xi-	-xi-	.	.
.	.	.	.	.	.	.	.	.	.	.	.	.	(16ee\	-mos	-mos	.	.
8A\	.	.	.	.	.	.	.	.	.	.	.	.	&(8ee\L	me-	me-	.	.
8B\J	#	.	.	.	.	.	.	.	.	.	.	.	8dd#\J&))	.	.	.	.
=62	=62	=62	=62-	=62	=62	=62	=62	=62	=62	=62	=62	=62	=62	=62	=62	=62	=62
4E\	.	4r	4r	.	.	.	.	.	.	.	.	.	4ee\	-os	-os.	.	.
8E\L	.	8b\L	8gg\L	.	.	.	.	.	.	.	.	.	4rdd	.	.	.	.
8D#X\J	6	8b\J	8ff#X\	.	.	.	.	.	.	.	.	.	.	.	.	.	.
8E\L	.	8b\L	8gg\	.	.	.	.	.	.	.	.	.	2rcc	.	.	.	.
8C\J	.	8ee\J	8ee\J	.	.	.	.	.	.	.	.	.	.	.	.	.	.
4AA/	.	8.cc\L	16ff#X\LL	.	.	.	.	.	.	.	.	.	.	.	.	.	.
.	.	.	16gg\	.	.	.	.	.	.	.	.	.	.	.	.	.	.
.	.	.	16ff#\	.	.	.	.	.	.	.	.	.	.	.	.	.	.
.	.	16cc\Jk	16ee\JJ	.	.	.	.	.	.	.	.	.	.	.	.	.	.
=63	=63	=63	=63	=63	=63	=63	=63	=63	=63	=63	=63	=63	=63-	=63	=63	=63	=63
8BB/L	.	4b\	8dd#X\L	.	.	.	.	.	.	.	.	.	00r	.	.	.	.
8D#X/J	.	.	8bb\J	.	.	.	.	.	.	.	.	.	.	.	.	.	.
8E\L	.	8b\L	16gg\LL	.	.	.	.	.	.	.	.	.	.	.	.	.	.
.	.	.	16aa\	.	.	.	.	.	.	.	.	.	.	.	.	.	.
16E\L	.	8b\J	16gg\	.	.	.	.	.	.	.	.	.	.	.	.	.	.
16D#\JJ	.	.	16ff#X\JJ	.	.	.	.	.	.	.	.	.	.	.	.	.	.
8C/L	.	4cc\	8ee\L	.	.	.	.	.	.	.	.	.	.	.	.	.	.
8AA/J	.	.	16aa\L	.	.	.	.	.	.	.	.	.	.	.	.	.	.
.	.	.	16gg\JJ	.	.	.	.	.	.	.	.	.	.	.	.	.	.
8D#/L	#	8a\L	16ff#X\LL	.	.	.	.	.	.	.	.	.	.	.	.	.	.
.	.	.	16gg\	.	.	.	.	.	.	.	.	.	.	.	.	.	.
16D#/L	.	8a\J	16ff#\	.	.	.	.	.	.	.	.	.	.	.	.	.	.
16C/JJ	.	.	16ee\JJ	.	.	.	.	.	.	.	.	.	.	.	.	.	.
=64	=64	=64	=64	=64-	=64	=64	=64-	=64	=64	=64-	=64	=64	=64	=64	=64	=64-	=64
!	!	!LO:SIC:s=4g\:v	!	!	!	!	!	!	!	!	!	!	!	!	!	!	!
8BB/L	.	4b\	8dd\L	1rD	.	.	2r	.	.	1r	.	.	.	.	.	1r	00r
8GG/J	.	.	16gg\L	.	.	.	.	.	.	.	.	.	.	.	.	.	.
.	.	.	16ff#X\JJ	.	.	.	.	.	.	.	.	.	.	.	.	.	.
8C/L	.	8cc\L	8ee\L	.	.	.	.	.	.	.	.	.	.	.	.	.	.
8AA/J	.	8ee\	16aa\L	.	.	.	.	.	.	.	.	.	.	.	.	.	.
.	.	.	16gg\JJ	.	.	.	.	.	.	.	.	.	.	.	.	.	.
8D/L	#	8dd\	8ff#X\L	.	.	.	4r	.	.	.	.	.	.	.	.	.	.
8BB/J	6	8gg\J	16bb\L	.	.	.	.	.	.	.	.	.	.	.	.	.	.
.	.	.	16aa\JJ	.	.	.	.	.	.	.	.	.	.	.	.	.	.
!LO:LB:g=original	!	!	!	!	!	!	!	!	!	!	!	!	!	!	!	!	!
4D/	.	4ff#X\	4aa\	.	.	.	8r	.	.	.	.	.	.	.	.	.	.
.	.	.	.	.	.	.	8d\	lo-	Lo-	.	.	.	.	.	.	.	.
=65	=65	=65	=65	=65-	=65	=65	=65	=65	=65	=65-	=65	=65	=65	=65	=65	=65	=65
!LO:TX:t=P:problem=mixed beam	!	!	!	!	!	!	!	!	!	!	!	!	!	!	!	!	!
8GG/L	.	4gg\	4gg\	8rG	.	.	16B\LL	-quae-	-que-	4r	.	.	.	.	.	1r	.
.	.	.	.	.	.	.	16c\	.	.	.	.	.	.	.	.	.	.
8G\J	.	.	.	8G\	lo-	Lo-	16B\	.	.	.	.	.	.	.	.	.	.
.	.	.	.	.	.	.	16A\JJ	.	.	.	.	.	.	.	.	.	.
4E\	6	4r	4r	16E\LL	-quae-	-que-	16G\LL	.	.	8r	.	.	.	.	.	.	.
.	.	.	.	16F\	.	.	16A\	.	.	.	.	.	.	.	.	.	.
.	.	.	.	16E\	.	.	16B\	.	.	8g\	lo-	Lo-	.	.	.	.	.
.	.	.	.	16D\JJ	.	.	16G\JJ	.	.	.	.	.	.	.	.	.	.
4C/	.	2r	2ra	8C/	.	.	16c\LL	.	.	16e\LL	-quae-	-que-	.	.	.	.	.
.	.	.	.	.	.	.	16d\	.	.	16f\	.	.	.	.	.	.	.
.	.	.	.	8C/	-bar	-bar	16c\	.	.	16e\	.	.	.	.	.	.	.
.	.	.	.	.	.	.	16B\JJ	.	.	16d\JJ	.	.	.	.	.	.	.
4F\	.	.	.	4F\	pa-	pa-	16A\LL	.	.	16c\LL	.	.	.	.	.	.	.
.	.	.	.	.	.	.	16B\	.	.	16d\	.	.	.	.	.	.	.
.	.	.	.	.	.	.	16c\	.	.	16e\	.	.	.	.	.	.	.
.	.	.	.	.	.	.	16A\JJ	.	.	16c\JJ	.	.	.	.	.	.	.
!	!	!	!	!	!	!	!	!	!	!LO:LB:g=original	!	!	!	!	!	!	!
=66	=66	=66-	=66	=66	=66	=66	=66	=66	=66	=66	=66	=66	=66	=66	=66	=66	=66
4D\	.	0r	0r	4D/	-cem	-cem,	16d\LL	.	.	16f\LL	.	.	.	.	.	1r	.
.	.	.	.	.	.	.	16e\	.	.	16g\	.	.	.	.	.	.	.
.	.	.	.	.	.	.	16d\	.	.	16f\	.	.	.	.	.	.	.
.	.	.	.	.	.	.	16c\JJ	.	.	16e\JJ	.	.	.	.	.	.	.
!	!	!	!	!LO:PB:g=original	!	!	!	!	!	!	!	!	!	!	!	!	!
4G\	.	.	.	4G\	.	.	16B\LL	.	.	16d\LL	.	.	.	.	.	.	.
.	.	.	.	.	.	.	16c\	.	.	16e\	.	.	.	.	.	.	.
.	.	.	.	.	.	.	16d\	.	.	16f\	.	.	.	.	.	.	.
.	.	.	.	.	.	.	16B\JJ	.	.	16d\JJ	.	.	.	.	.	.	.
4E\	.	.	.	8E\	.	.	8e\	-bar	-bar,	8g\	-bar	-bar,	.	.	.	.	.
.	.	.	.	8E\	lo-	lo-	8e\	.	.	8g\	.	.	.	.	.	.	.
4A\	.	.	.	8A\	-quae-	-que-	8r	.	.	8r	.	.	.	.	.	.	.
.	.	.	.	8A\	-bar	-bar	8c\	-lo-	-lo-	8e\	lo-	lo-	.	.	.	.	.
=67	=67	=67	=67	=67	=67	=67	=67	=67	=67	=67	=67	=67	=67-	=67	=67	=67	=67
4F\	.	.	.	4F\	pa-	pa-	8f\	-quae-	-que-	8a\	-quae-	-que-	1ra	.	.	1r	.
.	.	.	.	.	.	.	8f\	-bar	-bar	8a\	-bar	-bar	.	.	.	.	.
!	!	!	!	!	!	!	!LO:TX:a:t=P:problem=przesunięte łuki	!	!	!	!	!	!	!	!	!	!
4D\	.	.	.	4D/	-cem	-cem	(16f\LL	pa-	pa-	(16a\LL	pa-	pa-	.	.	.	.	.
.	.	.	.	.	.	.	16e\JJ)	.	.	16g#X\JJ)	.	.	.	.	.	.	.
.	.	.	.	.	.	.	(16d\LL	-cem	-cem	(16a\LL	-cem	-cem	.	.	.	.	.
.	.	.	.	.	.	.	16c\JJ)	.	.	16b\JJ)	.	.	.	.	.	.	.
4E\	#	.	.	4E\	de	de	4B\	de	de	4g#X\	de	de	.	.	.	.	.
!	!	!	!	!LO:SIC:s=4C#/:v	!	!	!	!	!	!	!	!	!	!	!	!	!
4AA/	#	.	.	4C/	te	te.	4c#X\	te	te.	4a\	te	te.	.	.	.	.	.
!	!	!	!LO:LB:g=original	!	!	!	!LO:LB:g=original	!	!	!	!LO:PB:g=original	!LO:PB:g=original	!	!	!	!	!
=68	=68	=68	=68	=68	=68	=68	=68	=68	=68	=68	=68	=68	=68-	=68	=68	=68	=68
8F\L	.	8cc\L	8cc\L	8F\	p(ro)-	P(ro)-	(8A\	p(ro)-	P(ro)-	8c\	p(ro)-	P(ro)-	8a\	Prop-	Pro-	8cc\L	8cc\L
8E\	6	8cc\	8gg\	8E\	-pter	-pter	8c\)	-pter	-pter	8c\	-pter	-pter	8g/	-ter	-pter	8cc\J	8g\
8F\	.	8cc\	8ff\	8F\	Do-	do-	8A/	do-	do-	8c\	Do-	do-	8a\	do-	do-	16cc\LL	8cc\
.	.	.	.	.	.	.	.	.	.	.	.	.	.	.	.	16cc\	.
!	!	!	!	!	!	!	!	!	!	!	!	!	!	!	!	!	!LO:SIC:s=8cc\J:v
8E\J	6	8cc\J	8gg\J	8E\	-mu(m)	-mu(m)	8G/	-mu(m)	-mu(m)	8e\	-mum	-mum	8cc\	-mum	-mum	16cc\	8dd\J
.	.	.	.	.	.	.	.	.	.	.	.	.	.	.	.	16cc\JJ	.
!	!	!LO:LB:g=original	!	!	!	!	!	!	!	!	!	!	!	!	!	!	!
4D/	7	8dd\L	8cc\L	8.D/	Do-	Do-	8A/	Do-	Do-	8.f\	D(o-	D(o-	8.cc\	Do-	Do-	8dd\L	8dd\L
.	6	8dd\J	8b\J	.	.	.	8F/	-mi-	-mi-	.	.	.	.	.	.	8dd\J	8dd\
.	.	.	.	16D/	-mi-	-mi-	.	.	.	16f\	-mi)-	-mi)-	16b\	-mi-	-mi-	.	.
!	!	!	!	!	!	!	!	!	!	!	!	!	!	!	!	!LO:LB:g=original	!
4C/	.	4ee\	4cc\	4C/	-ni	-ni,	4c\	-ni	-ni,	4e\	-ni	-ni,	4cc\	-ni	-ni,	8ee\L	8ee\
!	!	!	!	!	!	!	!	!	!	!	!	!	!	!	!	!	!LO:SIC:s=8dd:v
.	.	.	.	.	.	.	.	.	.	.	.	.	.	.	.	8dd\J	8cc\J
=69	=69	=69	=69	=69	=69	=69	=69	=69	=69	=69	=69	=69	=69	=69	=69	=69	=69
8c\L	.	8ee\L	8gg\L	8c\	do-	do-	8c\	Do-	do-	8g\	Do-	do-	8ee\	do-	do-	8ee\L	8gg\L
8B\	6	8dd\	8gg\	8B\	-mu(m)	-mu(m)	8d\	-mu(m)	-mu(m)	8g\	-mum	-mum	8dd\	-mum	-mum	8dd\	8gg\
!	!	!	!	!	!	!	!	!	!	!LO:LB:g=original	!	!	!	!	!	!	!
8c\	.	8ee\	8gg\	8c\	De-	De-	8c\	De-	De-	8g\	De-	De-	8ee\	De-	De-	8ee\	8gg\
8B\J	6	8dd\J	8gg\J	8B\	-i	-i	8d\	-i	-i	8g\	-i	-i	8dd\	-i	-i	8dd\J	8gg\J
4A\	7	8cc\L	8gg\L	4A\	noſ-	no-	4A\	noſt-	no-	8e\L	no-	no-	4cc\	noſ-	no-	4cc\	8gg\L
.	6	8a\J	8ff#X\J	.	.	.	.	.	.	8c\J	.	.	.	.	.	.	8ff#X\J
4G\	.	8dd\L	8gg\L	8G\	-tri	-stri,	8B\	-ri	-stri,	8g\	-ſtri	-stri,	8b\	-tri	-stri,	4g/	4gg\
.	.	8dd\J	8gg\J	8G\	quae-	quae-	8B\	quae-	quae-	8d\	quae-	quae-	8dd\	quae-	quae-	.	.
!	!	!	!	!LO:LB:g=original	!	!	!	!	!	!	!	!	!	!	!	!	!
=70	=70	=70	=70	=70	=70	=70	=70	=70	=70	=70	=70	=70	=70	=70	=70	=70	=70
8E\L	6	8cc\L	8ee\L	8E\	-si-	-si-	8c\	-Si-	-si-	8g\	-si-	-si-	8ee\	-ſi-	-si-	4r	4r
8C\J	.	8cc\J	8ee\	8C/	-vi	-vi,	8c\	-vi	-vi,	8g\	-vi	-vi,	8ee\	-vi	-vi,	.	.
4G\	.	8g\L	8dd\	4rF	.	.	4r	.	.	4r	.	.	4rdd	.	.	8g/L	8dd\L
.	.	8g\J	8dd\J	.	.	.	.	.	.	.	.	.	.	.	.	8g/J	8dd\
8E\L	.	8cc\L	8ee\L	8rG	.	.	8r	.	.	8r	.	.	8ra	.	.	8cc\L	8ee\
8C\J	.	8ee\	8gg\	8c\	quae-	quae-	8c\	quae-	quae-	8e\	quae-	quae-	8e/	quae-	quae-	8ee\	8gg\J
!LO:LB:g=original	!	!	!	!	!	!	!	!	!	!	!	!	!	!	!	!	!
8A\L	.	8ff\	8aa\	8A\	-si-	-si-	8c\	-Si-	-si-	8a\	-si-	-si-	8cc\	-ſi-	-si-	8ff\	8aa\L
8F\J	.	8ff\J	8aa\J	8F\	-vi	-vi	8A\	-vi	-vi	8a\	-vi	-vi	8cc\	-vi	-vi	8ff\J	8aa\J
!	!	!	!	!	!	!	!	!	!	!	!	!	!LO:LB:g=original	!	!	!	!
=71	=71	=71	=71	=71	=71	=71	=71	=71	=71	=71	=71	=71	=71	=71	=71	=71	=71
8E\L	.	8gg\L	8gg\L	8E\L	bo-	bo-	8c\	bo-	bo-	8e\	bo-	bo-	8cc\	bo-	bo-	8gg\L	8gg\L
8F\J	.	8aa\J	8ff\J	8F\J	-na	-na	8A\	-na	-na	8a\	-na	-na	8a\	-na	-na	8aa\J	8ff\J
!LO:TX:t=P:problem=mixed beam	!	!	!	!	!	!	!	!	!	!	!	!	!	!	!	!	!
8G\L	.	4gg\	4dd\	4G\	ti-	ti-	4B\	ti-	ti-	4g\	ti-	ti-	4dd\	ti-	ti-	8gg\L	4dd\
8GG/J	.	.	.	.	.	.	.	.	.	.	.	.	.	.	.	16gg\L	.
.	.	.	.	.	.	.	.	.	.	.	.	.	.	.	.	16ff\JJ	.
!	!	!	!	!LO:TX:a:t=P:problem=pojedyńcza kreska taktowa	!	!	!	!	!	!	!	!	!LO:TX:a:t=P:problem=pojedyńcza kreska taktowa	!	!	!LO:TX:a:t=P:problem=kreska z obustronną repetycją	!LO:TX:a:t=P:problem=kreska z obustronną repetycją
2C/	.	2gg\	2ee\	2C/	-bi	-bi.	2c\	-bi	-bi.	2g\	-bi.	-bi.	2cc\	-bi	-bi.	2ee\	2cc\
!	!	!	!	!	!	!	!LO:LB:g=original	!	!	!	!	!	!	!	!	!	!
=72||	=72||	=72||	=72||	=72||	=72||	=72||	=72||	=72||	=72||	=72||	=72||	=72||	=72||	=72||	=72||	=72||	=72||
*M6/8	*	*M6/8	*M6/8	*M6/8	*	*	*M6/8	*	*	*M6/8	*	*	*M6/8	*	*	*M6/8	*M6/8
!LO:MO:mod=!LO&colon;TX&colon;a&colon;i&colon;t=Solo	!	!LO:MO:mod=!null:null	!	!	!	!	!	!	!	!	!	!	!	!	!	!LO:MO:mod=!null:null	!LO:MO:mod=!null:null
!LO:TX:b:t=Solo	!	!LO:TX:b:t=Gloria.	!	!	!	!	!	!	!	!	!	!	!	!	!	!LO:TX:b:t=Gloria	!LO:TX:b:t=Gloria
!	!	!LO:MO:mod=!null:null	!LO:MO:mod=!null:null	!LO:MO:mod=!null:null	!	!	!LO:MO:mod=!null:null	!	!	!LO:MO:mod=!null:null	!	!	!	!	!	!LO:MO:mod=!null:null	!LO:MO:mod=!null:null
!	!	!LO:N:vis=0	!LO:N:vis=0	!LO:N:vis=00	!	!	!LO:N:vis=00	!	!	!LO:N:vis=2	!	!	!	!	!	!LO:N:vis=00	!LO:N:vis=00
4A\	.	1.r	1.r	0.r	.	.	0.r	.	.	4.r	.	.	16ee\LL	Glo-	Glo-	0.r	0.r
.	.	.	.	.	.	.	.	.	.	.	.	.	16ff\	.	.	.	.
.	.	.	.	.	.	.	.	.	.	.	.	.	16ee\	.	.	.	.
.	.	.	.	.	.	.	.	.	.	.	.	.	16dd\	.	.	.	.
8A\	.	.	.	.	.	.	.	.	.	.	.	.	16cc\	.	.	.	.
.	.	.	.	.	.	.	.	.	.	.	.	.	16b\JJ	.	.	.	.
8F\	.	.	.	.	.	.	.	.	.	16a\LL	Glo-	Glo-	8.cc\	.	.	.	.
.	.	.	.	.	.	.	.	.	.	16b-X\	.	.	.	.	.	.	.
4F\	.	.	.	.	.	.	.	.	.	16a\	.	.	.	.	.	.	.
.	.	.	.	.	.	.	.	.	.	16g\	.	.	16b\	-ri-	-ri-	.	.
.	.	.	.	.	.	.	.	.	.	16f\	.	.	8a\	-a	-a,	.	.
.	.	.	.	.	.	.	.	.	.	16e\JJ	.	.	.	.	.	.	.
=73	=73	=73	=73	=73	=73	=73	=73	=73	=73	=73	=73	=73	=73	=73	=73	=73	=73
4D\	.	.	.	.	.	.	.	.	.	8.f\	-ri-	-ri-	8.dd\	glo-	glo-	.	.
.	.	.	.	.	.	.	.	.	.	16e\	.	.	16cc\	-ri-	-ri-	.	.
8G\	.	.	.	.	.	.	.	.	.	8d\	-a	-a	8b\	-a	-a	.	.
!	!	!	!	!	!	!	!	!	!	!LO:LB:g=original	!	!	!	!	!	!	!
4C/	.	.	.	.	.	.	.	.	.	16e\LL	Pa-	Pa-	4cc\	Pat-	Pa-	.	.
.	.	.	.	.	.	.	.	.	.	16d\	.	.	.	.	.	.	.
.	.	.	.	.	.	.	.	.	.	16e\	.	.	.	.	.	.	.
.	.	.	.	.	.	.	.	.	.	16f\	.	.	.	.	.	.	.
8C/	.	.	.	.	.	.	.	.	.	16g\	.	.	8b\	-ri	-tri	.	.
.	.	.	.	.	.	.	.	.	.	16e\JJ	.	.	.	.	.	.	.
=74	=74	=74-	=74	=74	=74	=74	=74	=74	=74	=74	=74	=74	=74	=74	=74	=74	=74
8D/L	6	2.r	2.r	.	.	.	.	.	.	8f\	-tri	-tri	8a\L	et	et	.	.
8BB/	.	.	.	.	.	.	.	.	.	8g\	et	et	8dd\	.	.	.	.
8AA/J	.	.	.	.	.	.	.	.	.	8a\	.	.	8cc\J	.	.	.	.
8D\	.	.	.	.	.	.	.	.	.	4a\	Fi-	Fi-	4b\	fi-	Fi-	.	.
4E\	4	.	.	.	.	.	.	.	.	.	.	.	.	.	.	.	.
!	!	!	!LO:MO:mod=!null:null	!	!	!	!	!	!	!	!	!	!	!	!	!	!
!	!	!	!LO:TX:b:t=verte	!	!	!	!	!	!	!	!	!	!	!	!	!	!
.	3	.	.	.	.	.	.	.	.	8g#X\	-li-	-li-	8b\	-li-	-li-	.	.
!	!	!	!LO:PB:g=original	!	!	!	!	!	!	!	!LO:LB:g=original	!LO:LB:g=original	!	!	!	!	!
=75	=75	=75-	=75	=75	=75	=75	=75	=75	=75	=75	=75	=75	=75	=75	=75	=75	=75
!	!	!LO:MO:mod=!null:null	!	!	!	!	!	!	!	!	!	!	!LO:MO:mod=!null:null	!	!	!	!
!	!	!LO:N:vis=2	!	!	!	!	!	!	!	!	!	!	!LO:N:vis=4	!	!	!	!
4AA/	.	4.ra	16aa\LL	.	.	.	.	.	.	4a\	-o	-o,	8cc\	-o	-o,	.	.
.	.	.	16bb-X\	.	.	.	.	.	.	.	.	.	.	.	.	.	.
.	.	.	16aa\	.	.	.	.	.	.	.	.	.	8rdd	.	.	.	.
.	.	.	16gg\	.	.	.	.	.	.	.	.	.	.	.	.	.	.
8D/	.	.	16ff\	.	.	.	.	.	.	8r	.	.	2rcc	.	.	.	.
.	.	.	16ee\JJ	.	.	.	.	.	.	.	.	.	.	.	.	.	.
!	!	!	!	!	!	!	!	!	!	!LO:MO:mod=!null:null	!	!	!	!	!	!	!
!	!	!	!	!	!	!	!	!	!	!LO:N:vis=2	!	!	!	!	!	!	!
4BB-X/	.	16dd\LL	8.ff\L	.	.	.	.	.	.	4.rf	.	.	.	.	.	.	.
.	.	16ee-X\	.	.	.	.	.	.	.	.	.	.	.	.	.	.	.
.	.	16dd\	.	.	.	.	.	.	.	.	.	.	.	.	.	.	.
.	.	16cc\	16ee\K	.	.	.	.	.	.	.	.	.	.	.	.	.	.
8BB-/	.	16b-X\	8dd\J	.	.	.	.	.	.	.	.	.	.	.	.	.	.
.	.	16a\JJ	.	.	.	.	.	.	.	.	.	.	.	.	.	.	.
!	!	!LO:LB:g=original	!	!	!	!	!	!	!	!	!	!	!	!	!	!	!
=76	=76	=76	=76	=76-	=76	=76	=76-	=76	=76	=76	=76	=76	=76-	=76	=76	=76	=76
!	!	!	!	!	!	!	!LO:MO:mod=!null:null	!	!	!LO:MO:mod=!null:null	!	!	!LO:MO:mod=!null:null	!	!	!LO:MO:mod=!null:null	!LO:MO:mod=!null:null
!	!	!	!	!	!	!	!LO:N:vis=0	!	!	!LO:N:vis=0	!	!	!LO:N:vis=00	!	!	!LO:N:vis=00	!LO:N:vis=00
4C/	.	16g/LL	16ee\LL	2.rD	.	.	1.r	.	.	1.rf	.	.	0.r	.	.	0.r	0.r
.	.	16f/	16dd\	.	.	.	.	.	.	.	.	.	.	.	.	.	.
.	.	16g/	16ee\	.	.	.	.	.	.	.	.	.	.	.	.	.	.
.	.	16a/	16ff\	.	.	.	.	.	.	.	.	.	.	.	.	.	.
!LO:LB:g=original	!	!	!	!	!	!	!	!	!	!	!	!	!	!	!	!	!
8C/	.	16b-X/	16gg\	.	.	.	.	.	.	.	.	.	.	.	.	.	.
.	.	16cc/JJ	16aa\JJ	.	.	.	.	.	.	.	.	.	.	.	.	.	.
4F\	.	16a/LL	4ff\	.	.	.	.	.	.	.	.	.	.	.	.	.	.
.	.	16g/	.	.	.	.	.	.	.	.	.	.	.	.	.	.	.
.	.	16a/	.	.	.	.	.	.	.	.	.	.	.	.	.	.	.
.	.	16b-X/J	.	.	.	.	.	.	.	.	.	.	.	.	.	.	.
8F\	.	8cc/J	8ee\	.	.	.	.	.	.	.	.	.	.	.	.	.	.
=77	=77	=77	=77	=77-	=77	=77	=77	=77	=77	=77	=77	=77	=77	=77	=77	=77	=77
!	!	!	!	!LO:MO:mod=!null:null	!	!	!	!	!	!	!	!	!	!	!	!	!
!	!	!	!	!LO:N:vis=2	!	!	!	!	!	!	!	!	!	!	!	!	!
8G\L	.	8b-X\L	8dd\L	4.r	.	.	.	.	.	.	.	.	.	.	.	.	.
8E\	6	8cc\	8gg\	.	.	.	.	.	.	.	.	.	.	.	.	.	.
8D\J	.	8dd\J	8ff\J	.	.	.	.	.	.	.	.	.	.	.	.	.	.
!LO:TX:t=P:problem=mixed beam	!	!	!	!	!	!	!	!	!	!	!	!	!	!	!	!	!
8G\L	.	4dd\	4ee\	8r	.	.	.	.	.	.	.	.	.	.	.	.	.
8A\	.	.	.	8A\	Et	Et	.	.	.	.	.	.	.	.	.	.	.
8AA/J	4	8cc#X\	8ee\	8E\	Spi-	Spi-	.	.	.	.	.	.	.	.	.	.	.
.	3	.	.	.	.	.	.	.	.	.	.	.	.	.	.	.	.
=78	=78	=78	=78	=78	=78	=78	=78-	=78	=78	=78-	=78	=78	=78	=78	=78	=78	=78
4D/	-	4dd\	8dd\L	8.F\	-ri-	-ri-	2r	.	.	2.ra	.	.	.	.	.	.	.
.	.	.	8a\J	.	.	.	.	.	.	.	.	.	.	.	.	.	.
.	.	.	.	16F\	-tu-	-tu-	.	.	.	.	.	.	.	.	.	.	.
8C/	.	8r	8r	8C/	-i	-i	.	.	.	.	.	.	.	.	.	.	.
!	!	!LO:MO:mod=!null:null	!LO:MO:mod=!null:null	!	!	!	!	!	!	!	!	!	!	!	!	!	!
!	!	!LO:N:vis=2	!LO:N:vis=2	!	!	!	!	!	!	!	!	!	!	!	!	!	!
4D/	.	4.ra	4.ra	16D\LL	San-	San-	.	.	.	.	.	.	.	.	.	.	.
.	.	.	.	16C\	.	.	.	.	.	.	.	.	.	.	.	.	.
.	.	.	.	16D\	.	.	8d\	Et	Et	.	.	.	.	.	.	.	.
.	.	.	.	16E\	.	.	.	.	.	.	.	.	.	.	.	.	.
8D/	-	.	.	16F\	.	.	8A\	Spi	Spi	.	.	.	.	.	.	.	.
.	.	.	.	16D\JJ	.	.	.	.	.	.	.	.	.	.	.	.	.
=79	=79	=79-	=79	=79	=79	=79	=79	=79	=79	=79-	=79	=79	=79	=79	=79	=79	=79
!	!	!LO:MO:mod=!null:null	!	!	!	!	!	!	!	!LO:MO:mod=!null:null	!	!	!	!	!	!	!
!	!	!LO:N:vis=0	!	!	!	!	!	!	!	!LO:N:vis=2	!	!	!	!	!	!	!
4G\	.	1.r	2.rcc	8G\	.	.	8.B-X\	ri-	ri-	4.r	.	.	.	.	.	.	.
.	.	.	.	8G\	-cto	-cto,	.	.	.	.	.	.	.	.	.	.	.
.	.	.	.	.	.	.	16A\	-tu-	-tu-	.	.	.	.	.	.	.	.
!	!	!	!	!LO:LB:g=original	!	!	!	!	!	!	!	!	!	!	!	!	!
8G\	.	.	.	8G\	et	et	8G/	-i	-i	.	.	.	.	.	.	.	.
4F\	.	.	.	8.F\	Spi-	Spi-	16A\LL	San-	San-	8r	.	.	.	.	.	.	.
.	.	.	.	.	.	.	16G\	.	.	.	.	.	.	.	.	.	.
!	!	!	!	!	!	!	!	!	!	!LO:TX:a:t=P:problem=przesunięte łuki	!	!	!	!	!	!	!
.	.	.	.	.	.	.	16A\	.	.	(16a\LL	et	et	.	.	.	.	.
.	.	.	.	16F\	-ri-	-ri-	16B-X\	.	.	16g\JJ)	.	.	.	.	.	.	.
8D/	.	.	.	8D/	-tui	-tui	16c\	.	.	(16f\LL	Spi-	Spi-	.	.	.	.	.
.	.	.	.	.	.	.	16A\JJ	.	.	16e\JJ)	.	.	.	.	.	.	.
=80	=80	=80	=80-	=80	=80	=80	=80	=80	=80	=80	=80	=80	=80-	=80	=80	=80	=80
!	!	!	!	!	!	!	!	!	!	!	!	!	!LO:MO:mod=!null:null	!	!	!LO:MO:mod=!null:null	!LO:MO:mod=!null:null
!	!	!	!	!	!	!	!	!	!	!	!	!	!LO:N:vis=00	!	!	!LO:N:vis=00	!LO:N:vis=00
4G\	.	.	2rf	16G\LL	San-	San-	16B-X\LL	.	.	8.d\	-ri-	-ri-	0.r	.	.	0.r	0.r
.	.	.	.	16F\	.	.	16A\	.	.	.	.	.	.	.	.	.	.
.	.	.	.	16G\	.	.	16B-\	.	.	.	.	.	.	.	.	.	.
.	.	.	.	16A\J	.	.	16c\J	.	.	16d\	-tu-	-tu-	.	.	.	.	.
8B-X\	.	.	.	8B-X\J	.	.	8d\J	.	.	8d\	-i	-i	.	.	.	.	.
!LO:TX:t=P:problem=mixed beam	!	!	!	!LO:TX:t=P:problem=mixed beam	!	!	!	!	!	!	!	!	!	!	!	!	!
8G\L	.	.	.	8G\L	.	.	4d\	.	.	8f\	San-	San-	.	.	.	.	.
8A\	.	.	8aa\L	8A\	.	.	.	.	.	4e\	.	.	.	.	.	.	.
!	!	!LO:MO:mod=!null:null	!	!	!	!	!	!	!	!	!	!	!	!	!	!	!
!	!	!LO:TX:b:t=Verte Cito Cito Cito	!	!	!	!	!	!	!	!	!	!	!	!	!	!	!
8AA/J	.	.	8ee\J	8AA/J	.	.	8c#X\	.	.	.	.	.	.	.	.	.	.
!	!	!LO:PB:g=original	!	!	!	!	!	!	!	!	!	!	!	!	!	!	!
=81	=81	=81	=81	=81	=81	=81	=81	=81	=81	=81	=81	=81	=81	=81	=81	=81	=81
8D\L	.	8r	8.ff\L	4D/	-cto	-cto,	4d\	-cto	-cto,	4d\	-cto	-cto,	.	.	.	.	.
8F\	.	8aa\L	.	.	.	.	.	.	.	.	.	.	.	.	.	.	.
.	.	.	16ff\K	.	.	.	.	.	.	.	.	.	.	.	.	.	.
!	!	!	!	!LO:MO:mod=!null:null	!	!	!	!	!	!	!	!	!	!	!	!	!
!	!	!	!	!LO:N:vis=4	!	!	!	!	!	!	!	!	!	!	!	!	!
8E\J	.	8ee\J	8cc\J	8rF	.	.	8r	.	.	8r	.	.	.	.	.	.	.
!	!	!	!	!LO:MO:mod=!null:null	!	!	!LO:MO:mod=!null:null	!	!	!LO:MO:mod=!null:null	!	!	!	!	!	!	!
!	!	!	!	!LO:N:vis=2	!	!	!LO:N:vis=2	!	!	!LO:N:vis=2	!	!	!	!	!	!	!
4D\	.	8.ff\L	16dd\LL	4.rF	.	.	4.r	.	.	4.r	.	.	.	.	.	.	.
.	.	.	16cc\	.	.	.	.	.	.	.	.	.	.	.	.	.	.
.	.	.	16dd\	.	.	.	.	.	.	.	.	.	.	.	.	.	.
!	!	!LO:SIC:s=16ee\K:v	!	!	!	!	!	!	!	!	!	!	!	!	!	!	!
.	.	16ff\K	16ee\	.	.	.	.	.	.	.	.	.	.	.	.	.	.
8G\	.	8dd\J	16ff\	.	.	.	.	.	.	.	.	.	.	.	.	.	.
.	.	.	16dd\JJ	.	.	.	.	.	.	.	.	.	.	.	.	.	.
!	!	!	!LO:LB:g=original	!	!	!	!	!	!	!	!	!	!	!	!	!	!
=82	=82	=82	=82	=82-	=82	=82	=82	=82	=82	=82-	=82	=82	=82	=82	=82	=82	=82
!	!	!	!	!LO:MO:mod=!null:null	!	!	!LO:MO:mod=!null:null	!	!	!LO:MO:mod=!null:null	!	!	!	!	!	!	!
!	!	!	!	!LO:N:vis=0	!	!	!LO:N:vis=0	!	!	!LO:N:vis=0	!	!	!	!	!	!	!
8E\	.	8.ee\L	8.gg\L	1.r	.	.	1.r	.	.	1.r	.	.	.	.	.	.	.
!LO:LB:g=original	!	!	!	!	!	!	!	!	!	!	!	!	!	!	!	!	!
8C/	.	.	.	.	.	.	.	.	.	.	.	.	.	.	.	.	.
.	.	16ff\L	16aa\L	.	.	.	.	.	.	.	.	.	.	.	.	.	.
8c\	.	16dd\	16ff\	.	.	.	.	.	.	.	.	.	.	.	.	.	.
.	.	16ee\JJ	16gg\JJ	.	.	.	.	.	.	.	.	.	.	.	.	.	.
8c\	.	8.cc\L	8.ee\L	.	.	.	.	.	.	.	.	.	.	.	.	.	.
8rc	.	.	.	.	.	.	.	.	.	.	.	.	.	.	.	.	.
.	.	16dd\L	16ff\L	.	.	.	.	.	.	.	.	.	.	.	.	.	.
8rF	.	16b\	16dd\	.	.	.	.	.	.	.	.	.	.	.	.	.	.
.	.	16cc\JJ	16ee\JJ	.	.	.	.	.	.	.	.	.	.	.	.	.	.
=83	=83	=83	=83	=83	=83	=83	=83	=83	=83	=83	=83	=83	=83	=83	=83	=83	=83
8F\	.	16a/LL	8cc\L	.	.	.	.	.	.	.	.	.	.	.	.	.	.
.	.	16g/	.	.	.	.	.	.	.	.	.	.	.	.	.	.	.
8rB	.	16a/	8.ccc\	.	.	.	.	.	.	.	.	.	.	.	.	.	.
.	.	16b/	.	.	.	.	.	.	.	.	.	.	.	.	.	.	.
8rF	.	16cc/	.	.	.	.	.	.	.	.	.	.	.	.	.	.	.
.	.	16a/JJ	16bb-X\Jk	.	.	.	.	.	.	.	.	.	.	.	.	.	.
!LO:TX:t=P:problem=mixed beam	!	!LO:TX:t=P:problem=mixed beam	!	!	!	!	!	!	!	!	!	!	!	!	!	!	!
8B-X\L	.	8f/L	8bb-\	.	.	.	.	.	.	.	.	.	.	.	.	.	.
8c\	.	8ff\	4gg\	.	.	.	.	.	.	.	.	.	.	.	.	.	.
!	!	!	!	!LO:TX:a:t=P:problem=podwójna kreska	!	!	!	!	!	!	!	!	!	!	!	!LO:TX:a:t=P:problem=podwójna kreska	!LO:TX:a:t=P:problem=kreska z obustronną repetycją
8C/J	.	8ee\J	.	.	.	.	.	.	.	.	.	.	.	.	.	.	.
!	!	!	!	!	!	!	!	!	!	!LO:LB:g=original	!	!	!	!	!	!	!
=84	=84	=84	=84	=84	=84	=84	=84	=84	=84	=84	=84	=84	=84-	=84	=84	=84	=84
*M2/2	*	*M2/2	*M2/2	*M2/2	*	*	*M2/2	*	*	*M2/2	*	*	*M2/2	*	*	*M2/2	*M2/2
*met(c)	*	*met(c|)	*met(C.)	*met(c)	*	*	*met(C.)	*	*	*met(C.)	*	*	*met(c)	*	*	*met(c|)	*met(c|)
!LO:MO:mod=!null:null	!	!LO:MO:mod=!null:null	!	!	!	!	!	!	!	!	!	!	!	!	!	!	!LO:MO:mod=!null:null
!LO:TX:b:t=Sicut erat	!	!LO:TX:b:t=Sicut	!	!	!	!	!	!	!	!	!	!	!	!	!	!	!LO:TX:b:t=Sicut
8F\L	.	8ff\L	8aa\L	8F\	Si-	si-	8c\	Si-	si-	8f\	Si-	si-	8a/	Si-	si-	0ra	0ra
8E\	6	8cc\J	8ee\	8E\	-cut	-cut	8c\	-cut	-cut	8g\	-cut	-cut	8g/	-cut	-cut	.	.
8F\	.	8ff\L	8aa\	8F\	e-	e-	8c\	e-	e-	8f\	e-	e-	8a/	e-	e-	.	.
8C\J	.	8gg\	8ccc\J	8C/	-rat	-rat	8c\	-rat	-rat	8e\	-rat	-rat	8g/	-rat	-rat	.	.
*	*	*	*	*	*	*	*custos	*	*	*	*	*	*	*	*	*	*
!	!	!	!	!	!	!	!LO:LB:g=original	!	!	!	!	!	!	!	!	!	!
8F\L	.	8aa\	8aa\L	8F\	in	in	8c\	in	in	8f\	in	in	8a\	in	in	.	.
8E\	.	8gg\J	8ee\	8E\	prin-	prin-	8G/	prin-	prin-	8g\	prin-	prin-	8cc\	prin-	prin-	.	.
8F\	.	8aa\L	8aa\	8F\	-ci-	-ci-	8c\	-ci-	-ci-	8f\	-ci-	-ci-	8a\	-ci-	-ci-	.	.
8C\J	.	8ee\J	8ccc\J	8C/	-pi-	-pi-	8c\	-pi-	-pi-	8e\	-pi-	-pi-	8g/	-pi-	-pi-	.	.
=85	=85	=85	=85	=85	=85	=85	=85	=85	=85	=85	=85	=85	=85	=85	=85	=85	=85
4F\	.	4cc\	4aa\	4F\	-o	-o	4c\	-o	-o	4f\	-o	-o	4a\	-o	-o	.	.
!	!	!	!	!LO:LB:g=original	!	!	!	!	!	!	!	!	!	!	!	!	!
8r	.	4r	4r	8r	.	.	8r	.	.	8r	.	.	8r	.	.	.	.
!	!	!	!	!LO:SIC:s=8G\:v	!	!	!	!	!	!	!	!	!	!	!	!	!
8G\	.	.	.	8A\	et	et	8B\	et	et	8d\	et	et	8dd\	et	et	.	.
8A\L	.	2rf	2ra	8A\	nunc	nunc,	8A\	n(un)c	n(un)c,	8a\	nunc	nunc,	8cc\	nunc	nunc,	.	.
8E\J	6	.	.	8E\	et	et	8c\	et	et	8g\	et	et	8ee\	et	et	.	.
!	!	!	!	!	!	!	!	!	!	!LO:SIC:s=8d\:v	!	!	!	!	!	!	!
4G\	.	.	.	8G\	Sem-	sem-	8B\	Sem-	sem-	8e\	Sem-	sem-	8dd\	Sem-	sem-	.	.
!	!	!	!	!	!	!	!	!	!	!LO:SIC:s=8d\:v	!	!	!	!	!	!	!
.	.	.	.	8G\	-per	-per,	8A\	-per	-per,	8e\	-per	-per,	8dd\	-per	-per,	.	.
=86	=86	=86	=86	=86	=86	=86	=86	=86	=86	=86	=86	=86	=86-	=86	=86	=86	=86
!LO:MO:mod=!LO&colon;TX&colon;a&colon;i&colon;t=Solo	!	!	!	!	!	!	!	!	!	!	!	!	!	!	!	!	!
!LO:TX:b:t=Solo	!	!	!	!LO:TX:a:t=P:problem=brak taktu	!	!	!	!	!	!	!	!	!	!	!	!	!
8c\L	.	8ee\L	8gg\L	1ryy	.	.	1r	.	.	1r	.	.	1ree	.	.	8ee\L	8gg\L
8B\	.	8dd\	8gg\	.	.	.	.	.	.	.	.	.	.	.	.	8dd\	8gg\
8c\	.	8ee\	8gg\	.	.	.	.	.	.	.	.	.	.	.	.	8ee\	8gg\
8G\J	.	8dd\J	8gg\J	.	.	.	.	.	.	.	.	.	.	.	.	8dd\J	8gg\J
!	!	!	!	!	!	!	!	!	!	!	!	!	!	!	!	!LO:MO:mod=!null:null	!LO:LB:g=original
!	!	!	!	!	!	!	!	!	!	!	!	!	!	!	!	!LO:TX:b:t=Sicut	!
8c\L	.	8cc\L	8ee\L	.	.	.	.	.	.	.	.	.	.	.	.	8cc\L	8ee\L
8B\	.	8g\	8dd\	.	.	.	.	.	.	.	.	.	.	.	.	8g\	8dd\
8c\	.	8cc\	8ee\	.	.	.	.	.	.	.	.	.	.	.	.	8cc\	8ee\
8G\J	.	8dd\J	8gg\J	.	.	.	.	.	.	.	.	.	.	.	.	8dd\J	8gg\J
!	!	!LO:LB:g=original	!	!	!	!	!	!	!	!	!	!	!	!	!	!	!
=87	=87	=87	=87	=87	=87	=87	=87-	=87	=87	=87-	=87	=87	=87-	=87	=87	=87	=87
!	!	!	!	!	!	!	!	!	!	!	!	!	!	!	!	!LO:TX:t=P:problem=mixed beam	!
4c\	.	8cc\L	4ee\	2rBB	.	.	2r	.	.	2r	.	.	2rcc	.	.	8cc\L	4ee\
.	.	8g\J	.	.	.	.	.	.	.	.	.	.	.	.	.	8g/J	.
!LO:LB:g=original	!	!	!	!	!	!	!	!	!	!	!	!	!	!	!	!	!
8r	.	8r	8r	.	.	.	.	.	.	.	.	.	.	.	.	4r	4r
8D/	.	8cc\	8ff#X\L	.	.	.	.	.	.	.	.	.	.	.	.	.	.
8E/L	.	8b\L	8gg\	4r	.	.	4r	.	.	4r	.	.	4ree	.	.	2ra	2r
8C/J	6	8cc\	8aa\J	.	.	.	.	.	.	.	.	.	.	.	.	.	.
!	!	!	!	!	!	!	!	!	!	!	!	!	!LO:LB:g=original	!	!	!	!
4D/	#	8a\	8ffn\L	8r	.	.	8r	.	.	8r	.	.	8rdd	.	.	.	.
.	.	8dd\J	8aa\J	8D/	et	et	8A\	et	et	8f#X\	et	et	8dd\	et	et	.	.
!	!	!	!	!	!	!	!	!	!	!	!	!	!	!	!	!LO:LB:g=original	!
=88	=88	=88	=88	=88	=88	=88	=88	=88	=88	=88	=88	=88	=88	=88	=88	=88	=88
8G\L	.	8b\L	8gg\L	8G\	nunc	nunc,	8B\	n(un)c	n(un)c,	8g\	nunc	nunc,	8b\	nunc	nunc,	2r	2r
8F#X\J	.	8a\	8aa\J	8F#X\	et	et	8d\	et	et	8d\	et	et	8a\	et	et	.	.
!	!	!	!LO:LB:g=original	!	!	!	!	!	!	!LO:LB:g=original	!	!	!	!	!	!	!
!	!	!	!LO:TX:t=P:problem=mixed beam	!	!	!	!	!	!	!	!	!	!	!	!	!	!
4G\	.	8b\	8gg\L	8G\	Sem-	sem-	8B\	Sem-	sem-	8g\	Sem-	sem-	8b\	Sem-	sem-	.	.
.	.	8b\J	8g/J	8G\	-per	-per,	8G/	-per	-per,	8g\	-per	-per,	8b\	-per	-per,	.	.
*	*	*	*	*	*ij	*ij	*	*	*	*	*	*	*	*	*	*	*
8c\L	.	8ee\L	8gg\L	8c\	Sem-	sem-	8e\	n(un)c	n(un)c,	8g\	n(un)c	n(un)c,	8ee\	nunc	nunc,	8ee\L	8gg\L
8B\J	.	8dd\	8gg\	8B\	-per	-per,	8g\	et	et	8g\	et	et	8dd\	et	et	8dd\	8gg\
*	*	*	*	*	*Xij	*Xij	*	*	*	*	*	*	*	*	*	*	*
4c\	.	8ee\	8gg\	8c\	Sem-	sem-	8e\	Sem-	sem-	8g\	Sem-	sem-	8ee\	Sem-	sem-	8ee\	8gg\
.	.	8ee\J	8gg\J	8c\	per	per,	8c\	per	per,	8e\	per	per,	8ee\	-per	-per,	8ee\J	8gg\J
!	!	!	!	!	!	!	!LO:LB:g=original	!	!	!	!	!	!	!	!	!	!
=89	=89	=89	=89	=89	=89	=89	=89	=89	=89	=89	=89	=89	=89-	=89	=89	=89	=89
8B\L	.	8dd\L	16gg\LL	1rA	.	.	2r	.	.	4r	.	.	1ree	.	.	8dd\L	16gg\LL
.	.	.	16aa\	.	.	.	.	.	.	.	.	.	.	.	.	.	16aa\
8G\J	.	8dd\	16gg\	.	.	.	.	.	.	.	.	.	.	.	.	8dd\	16gg\
.	.	.	16ff\JJ	.	.	.	.	.	.	.	.	.	.	.	.	.	16ff\JJ
4c\	.	8cc\	8ee\L	.	.	.	.	.	.	8g\	et	et	.	.	.	8cc\	8ee\L
.	.	8cc\J	8ee\J	.	.	.	.	.	.	8g\	in	in	.	.	.	8cc\J	8ee\J
!LO:MO:mod=!null:null	!	!	!	!	!	!	!	!	!	!	!	!	!	!	!	!	!
*clefC4	*	*	*	*	*	*	*	*	*	*	*	*	*	*	*	*	*
!!LO:MO:ori
8c\L	.	2ra	2ra	.	.	.	8c\	et	et	8a\	Sae-	sae-	.	.	.	2ra	4r
8c\J	6	.	.	.	.	.	8c\	in	in	16a\	-cu-	-cu-	.	.	.	.	.
.	.	.	.	.	.	.	.	.	.	16a\	-la	-la	.	.	.	.	.
!	!	!	!	!	!	!	!	!	!	!	!	!	!	!	!	!	!LO:MO:mod=!null:null
!	!	!	!	!	!	!	!	!	!	!	!	!	!	!	!	!	!LO:N:vis=2
8d\L	.	.	.	.	.	.	8d\	Sae-	sae-	8f\	Sae-	sae-	.	.	.	.	4r
16d\L	.	.	.	.	.	.	16d\	-cu-	-cu-	8f\	-cu-	-cu-	.	.	.	.	.
16d\JJ	.	.	.	.	.	.	16d\	-la	-la	.	.	.	.	.	.	.	.
!!LO:MO:end
!!LO:MO:mod
!! 8c\L	.	2ra	2ra	.	.	.	8c\	et	et	8a\	Sae-	sae-	.	.	.	2ra	2r
!! 8c\J	6	.	.	.	.	.	8c\	in	in	16a\	-cu-	-cu-	.	.	.	.	.
!! .	.	.	.	.	.	.	.	.	.	16a\	-la	-la	.	.	.	.	.
!! 8d\L	.	.	.	.	.	.	8d\	Sae-	sae-	8f\	Sae-	sae-	.	.	.	.	.
!! 16d\L	.	.	.	.	.	.	16d\	-cu-	-cu-	8f\	-cu-	-cu-	.	.	.	.	.
!! 16d\JJ	.	.	.	.	.	.	16d\	-la	-la	.	.	.	.	.	.	.	.
!!LO:MO:end
=90	=90	=90	=90	=90-	=90	=90	=90	=90	=90	=90	=90	=90	=90-	=90	=90	=90	=90
!LO:MO:mod=!null:null	!	!	!	!	!	!	!	!	!	!	!	!	!	!	!	!	!
*clefF4	*	*	*	*	*	*	*	*	*	*	*	*	*	*	*	*	*
8G\L	.	4r	1r	8G\	et	et	8B\	Sae-	sae-	8g\	lo-	lo-	4r	.	.	0ra	0ra
8G\J	.	.	.	8G\	in	in	8B\	-cu-	-cu-	8g\	-ru(m)	-ru(m),	.	.	.	.	.
8A\L	.	8cc\L	.	8A\	Sae-	sae-	8c\	-lo-	-lo-	8e\	et	et	8cc\	et	et	.	.
16A\L	.	8cc\J	.	16A\	-cu-	-cu-	8c\	-ru(m)	-ru(m),	8e\	in	in	8cc\	in	in	.	.
16A\JJ	.	.	.	16A\	-la	-la	.	.	.	.	.	.	.	.	.	.	.
!	!	!	!	!LO:LB:g=original	!	!	!	!	!	!	!	!	!	!	!	!	!
8F\L	.	8dd\L	.	8F\	Sae-	sae-	8A\	Sae-	sae-	8f\	Sae-	sae-	8dd\	Sae-	sae-	.	.
8F\J	6	16dd\L	.	8F\	-cu-	-cu-	8A\	-cu-	-cu-	16f\	-cu-	-cu-	16dd\	-cu-	-cu-	.	.
.	.	16dd\JJ	.	.	.	.	.	.	.	16f\	-la	-la	16dd\	-la	-la	.	.
!	!	!	!	!	!	!	!	!	!	!LO:LB:g=original	!	!	!	!	!	!	!
8G\L	.	8b\L	.	8G\	-lo-	-lo-	8B\	-lo-	-lo-	8d\	Sae-	sae-	8b\	Sae-	sae-	.	.
8G\J	.	8b\J	.	8G\	-ru(m)	-ru(m),	8B\	-ru(m)	-ru(m).	8d\	-cu-	-cu-	8b\	-cu-	-cu-	.	.
=91	=91	=91	=91-	=91	=91	=91	=91	=91	=91	=91	=91	=91	=91	=91	=91	=91	=91
8E\L	.	4cc\	8gg\L	8E\	et	et	8G\L	a-	A-	8e\	-lo-	-lo-	8cc\	-lo-	-lo-	.	.
8E\J	6	.	8gg\J	8E\	in	in	16c\L	.	.	8e\	-rum	-rum.	8cc\	-rum	-rum,	.	.
.	.	.	.	.	.	.	16B\JJ	.	.	.	.	.	.	.	.	.	.
!LO:LB:g=original	!	!	!	!	!	!	!	!	!	!	!	!	!LO:LB:g=original	!	!	!	!
8F\L	.	4cc\	8aa\L	8F\	Sae-	sae-	8A\L	.	.	8c\L	A-	A-	4ree	.	.	.	.
16F\L	.	.	16aa\L	16F\	-cu-	-cu-	16B\L	.	.	16d\L	.	.	.	.	.	.	.
16F\JJ	.	.	16aa\JJ	16F\	-la	-la	16c\JJ	.	.	16e\JJ	.	.	.	.	.	.	.
8D\L	.	4r	8ff\L	8D/	Sae-	sae-	16d\LL	.	.	16f\LL	.	.	4rcc	.	.	.	.
.	.	.	.	.	.	.	16c\	.	.	16e\	.	.	.	.	.	.	.
8E\	.	.	8gg\	8E\	-cu-	-cu-	16d\	.	.	16f\	.	.	.	.	.	.	.
.	.	.	.	.	.	.	16e\JJ	.	.	16g\JJ	.	.	.	.	.	.	.
8F\	.	8a/L	8aa\	8F\	-lo-	-lo-	16d\LL	.	.	16f\LL	.	.	8cc\	et	et	.	.
.	.	.	.	.	.	.	16e\	.	.	16g\	.	.	.	.	.	.	.
8D\J	.	8a/J	8ff\J	8D\	-ru(m)	-ru(m).	16d\	.	.	16f\	.	.	8cc\	in	in	.	.
.	.	.	.	.	.	.	16c\JJ	.	.	16e\JJ	.	.	.	.	.	.	.
=92	=92	=92	=92	=92	=92	=92	=92	=92	=92	=92	=92	=92	=92	=92	=92	=92-	=92-
8G\L	.	8b\L	4gg\	8G\L	A-	A-	8B\	-men	-men,	8d\	-men	-men,	8b\	Sae-	sae-	1rcc	1rcc
16G\L	.	16b\L	.	16G\L	.	.	8G/	.	.	8d\	.	.	16b\	-cu-	-cu-	.	.
16F\JJ	.	16b\JJ	.	16F\JJ	.	.	.	.	.	.	.	.	16b\	-la	-la	.	.
8E\L	6	8g\L	4gg\	8E\L	.	.	8c\L	-a-	-a-	8g\L	A-	a-	8g/	Sae-	sae-	.	.
8C\J	.	8g\J	.	8C\J	.	.	16c\L	.	.	16a\L	.	.	8g/	-cu-	-cu-	.	.
.	.	.	.	.	.	.	16B\JJ	.	.	16g\JJ	.	.	.	.	.	.	.
*	*	*	*	*	*	*	*custos	*	*	*	*	*	*	*	*	*	*
!	!	!LO:LB:g=original	!	!	!	!	!LO:LB:g=original	!	!	!	!	!	!	!	!	!	!
8F\L	.	8cc\L	2r	8F\L	.	.	8A\L	.	.	[8f\	.	.	8a\	-lo-	-lo-	.	.
8D\J	.	8cc\J	.	8D\J	.	.	8c\J	.	.	8f\]	.	.	8a\	-ru(m)	-ru(m).	.	.
!	!	!	!	!LO:TX:t=P:problem=mixed beam	!	!	!	!	!	!	!	!	!	!	!	!	!
4G\	.	4r	.	8G\L	.	.	4B\	.	.	4d\	.	.	4g/	A-	A-	.	.
.	.	.	.	8GG/J	.	.	.	.	.	.	.	.	.	.	.	.	.
=93	=93	=93	=93	=93	=93	=93	=93	=93	=93	=93	=93	=93	=93	=93	=93	=93	=93-
4C/	.	8ee\L	8gg\L	4C/	-men-	-men.	4c\	-men	-men.	4e\	-men	-men.	4g/	-men	-men.	4ee\	4gg\
.	.	8ee\J	8gg\J	.	.	.	.	.	.	.	.	.	.	.	.	.	.
8r	.	8ff\L	8aa\L	4r	.	.	4r	.	.	4r	.	.	4r	.	.	8r	8r
8AA/	6	16ff\L	16aa\L	.	.	.	.	.	.	.	.	.	.	.	.	8ff\	8aa\
.	.	16ff\JJ	16aa\JJ	.	.	.	.	.	.	.	.	.	.	.	.	.	.
4BB-X/	.	8dd\L	8ff\L	2rBB	.	.	2r	.	.	2r	.	.	2rf	.	.	4dd\	4ff\
.	.	8dd\	8ff\	.	.	.	.	.	.	.	.	.	.	.	.	.	.
8r	.	8ee\	8gg\	.	.	.	.	.	.	.	.	.	.	.	.	8r	8r
8GG/	6	8ee\J	8gg\J	.	.	.	.	.	.	.	.	.	.	.	.	8ee\	8gg\
=94	=94	=94	=94	=94-	=94	=94	=94	=94	=94	=94	=94	=94	=94-	=94	=94	=94	=94
4AA/	.	8cc\L	8ee\L	1rD	.	.	1r	.	.	0r	.	.	1ra	.	.	4cc\	4ee\
.	.	8cc\J	16ee\L	.	.	.	.	.	.	.	.	.	.	.	.	.	.
.	.	.	16ee\JJ	.	.	.	.	.	.	.	.	.	.	.	.	.	.
8r	.	8dd\L	8ff\L	.	.	.	.	.	.	.	.	.	.	.	.	8r	8r
8FF/	6	16dd\L	8ff\J	.	.	.	.	.	.	.	.	.	.	.	.	8dd\	8ff\
.	.	16dd\JJ	.	.	.	.	.	.	.	.	.	.	.	.	.	.	.
4GG/	.	8b\L	16dd\LL	.	.	.	.	.	.	.	.	.	.	.	.	8g/L	16dd\LL
.	.	.	16gg\	.	.	.	.	.	.	.	.	.	.	.	.	.	16gg\
.	.	8b\J	16ff\	.	.	.	.	.	.	.	.	.	.	.	.	8g/J	16ff\
.	.	.	16gg\JJ	.	.	.	.	.	.	.	.	.	.	.	.	.	16gg\JJ
!	!	!	!LO:LB:g=original	!	!	!	!	!	!	!	!	!	!	!	!	!	!
8AA/L	.	16cc\LL	16ee\LL	.	.	.	.	.	.	.	.	.	.	.	.	8cc\L	16ee\LL
.	.	16a\JJ	16cc\	.	.	.	.	.	.	.	.	.	.	.	.	.	16cc\
8FF/J	.	16dd\LL	16ff\	.	.	.	.	.	.	.	.	.	.	.	.	16dd\L	16ff\
.	.	16cc\JJ	16ee\JJ	.	.	.	.	.	.	.	.	.	.	.	.	16cc\JJ	16ee\JJ
!	!	!	!	!LO:LB:g=original	!	!	!	!	!	!	!	!	!	!	!	!	!
=95	=95	=95	=95	=95	=95	=95	=95-	=95	=95	=95	=95	=95	=95-	=95	=95	=95	=95
4GG/	.	8b\L	4dd\	2rBB	.	.	2r	.	.	.	.	.	4r	.	.	4g/	4dd\
.	.	16a\L	.	.	.	.	.	.	.	.	.	.	.	.	.	.	.
.	.	16b\JJ	.	.	.	.	.	.	.	.	.	.	.	.	.	.	.
4C/	.	8cc\L	4cc\	.	.	.	.	.	.	.	.	.	8g/	et	Et	4e/	4cc\
.	.	8g\J	.	.	.	.	.	.	.	.	.	.	8g/	in	in	.	.
8C/L	6	8a\L	2ra	8C/	et	Et	4r	.	.	.	.	.	8a\	Sae-	sae-	2ra	2r
!	!	!	!	!LO:SIC:s=8C/:v	!	!	!	!	!	!	!	!	!	!	!	!	!
8C/J	.	16a\LJ	.	8D/	in	in	.	.	.	.	.	.	16a\	-cu-	-cu-	.	.
.	.	16a\J	.	.	.	.	.	.	.	.	.	.	16a\	-la	-la	.	.
8D/L	.	8f#X/L	.	8D/	Sae-	sae-	8A\	et	Et	.	.	.	8f#X/	Sae-	sae-	.	.
!	!	!	!	!	!	!	!	!	!	!	!	!	!LO:LB:g=original	!	!	!	!
16D/L	.	8f#/J	.	16D/	-cu-	-cu-	8A\	in-	in-	.	.	.	8f#X/	-cu-	-cu-	.	.
16D/JJ	.	.	.	16D/	-la	-la	.	.	.	.	.	.	.	.	.	.	.
!LO:LB:g=original	!	!	!	!	!	!	!	!	!	!	!	!	!	!	!	!	!LO:LB:g=original
=96	=96	=96	=96	=96	=96	=96	=96	=96	=96	=96-	=96	=96	=96	=96	=96	=96	=96
8BB/L	6	8g/L	8dd\L	8BB/	Sae-	sae-	8B\	-Sae-	-sae-	8d\	et	Et	8g/	-lo-	-lo-	0ra	00r
8BB/	.	8g/J	16gg\L	8BB/	-cu-	-cu-	16B\	-cu-	-cu-	8d\	in	in	8g/	-ru(m)	-ru(m).	.	.
.	.	.	16ff\JJ	.	.	.	16B\	-la	-la.	.	.	.	.	.	.	.	.
*	*	*	*	*	*	*	*	*	*	*custos	*	*	*	*	*	*	*
!	!	!LO:LB:g=original	!	!	!	!	!	!	!	!LO:LB:g=original	!	!	!	!	!	!	!
8C/	.	8e/L	8ggL	8C/	-lo-	-lo-	8G\L	a-	A-	8e\	Sae-	sae-	8e/L	A-	A-	.	.
!	!	!LO:SIC:s=16e/L:v	!	!	!	!	!	!	!	!	!	!	!	!	!	!	!
!	!	!	!	!	!	!	!	!	!	!	!	!	!LO:SIC:s=16e/L:v	!	!	!	!
8C/J	.	16f/L	8ee\J	8C/	-ru(m)	-ru(m),	16c\L	.	.	16e\	-cu-	-cu-	16f/L	.	.	.	.
.	.	16g/JJ	.	.	.	.	16B\JJ	.	.	16e\	-la	-la	16g/JJ	.	.	.	.
*	*	*	*	*	*ij	*ij	*	*	*	*	*	*	*	*	*	*	*
8AA/L	.	16a/LL	8ee\L	8AA/	Sae-	sae-	8c\L	.	.	8c\	Sae-	sae-	16a\LL	.	.	.	.
.	.	16g/	.	.	.	.	.	.	.	.	.	.	16g\	.	.	.	.
8BB/	.	16a/	16aa\L	8BB/	-cu-	-cu-	8B\J	.	.	8d\	-cu-	-cu-	16a\	.	.	.	.
.	.	16b/JJ	16gg\JJ	.	.	.	.	.	.	.	.	.	16b\JJ	.	.	.	.
8C/	.	16a/LL	8aa\L	8C/	-lo-	-lo-	4A\	.	.	8e\	-lo-	-lo-	16a\LL	.	.	.	.
.	.	16b/	.	.	.	.	.	.	.	.	.	.	16b\	.	.	.	.
8AA/J	.	16a/	8aa\J	8AA/	-ru(m)	-ru(m).	.	.	.	8d\	-ru(m)	-ru(m).	16a\	.	.	.	.
*	*	*	*	*	*Xij	*Xij	*	*	*	*	*	*	*	*	*	*	*
.	.	16g/JJ	.	.	.	.	.	.	.	.	.	.	16g\JJ	.	.	.	.
=97	=97	=97	=97	=97	=97	=97	=97	=97	=97	=97	=97	=97	=97	=97	=97	=97	=97
8D/L	#	8f#X/L	2ra	8D/L	A-	A-	4A/	men'	men.	8d\	A-	A-	8f#X/	.	.	.	.
16D/L	.	8d/J	.	16D/L	.	.	.	.	.	8d\	-men	-men,	8d/	-men'	-men,	.	.
16C/JJ	.	.	.	16C/JJ	.	.	.	.	.	.	.	.	.	.	.	.	.
8BB/L	.	8dd\L	.	8BB/L	.	.	8G/	et	Et	8d\L	a-	a-	8dd\L	A-	a-	.	.
8GG/J	.	16ee\L	.	8GG/	.	.	8G/	in	in	16g\L	.	.	16ee\L	.	.	.	.
.	.	16dd\JJ	.	.	.	.	.	.	.	16f\JJ	.	.	16dd\JJ	.	.	.	.
8C/L	7	8cc\L	8r	8C/	.	.	8A/	Sae-	sae-	8e\L	.	.	8cc\L	.	.	.	.
8AA/J	.	8b\J	8dd\	8AA/J	.	.	16A/	-cu-	-cu-	8g\J	.	.	8b\J	.	.	.	.
.	.	.	.	.	.	.	16A/	-la	-la	.	.	.	.	.	.	.	.
4D/	#	4a/	16dd\LL	4D/	.	.	8F#X/	Sae-	sae-	4f#X\	.	.	4a\	-men	-men,	.	.
.	.	.	16ee\	.	.	.	.	.	.	.	.	.	.	.	.	.	.
.	.	.	16dd\	.	.	.	8D/	-cu-	-cu-	.	.	.	.	.	.	.	.
.	.	.	16cc\JJ	.	.	.	.	.	.	.	.	.	.	.	.	.	.
!	!	!	!	!	!	!	!LO:LB:g=original	!	!	!	!	!	!	!	!	!	!
=98	=98	=98	=98	=98	=98	=98	=98	=98	=98	=98	=98	=98	=98	=98	=98	=98-	=98
4GG/	.	4b/	4b\	4GG/	-men	-men.	8G/	-lo-	-lo-	4g\	-men	-men.	4b\	a-	a-	1rcc	.
.	.	.	.	.	.	.	8G/	-rum	-rum,	.	.	.	.	.	.	.	.
4C/	.	4r	8g\L	4r	.	.	4r	.	.	8g\	et	Et	8g\L	.	.	.	.
.	.	.	16cc\L	.	.	.	.	.	.	8g\	in	in	16cc\L	.	.	.	.
.	.	.	16b\JJ	.	.	.	.	.	.	.	.	.	16b\JJ	.	.	.	.
4F\	.	2ra	8cc\L	2rBB	.	.	8c\	et	et	8a\	Sae-	sae-	16a\LL	.	.	.	.
.	.	.	.	.	.	.	.	.	.	.	.	.	16b\	.	.	.	.
.	.	.	8a\J	.	.	.	8c\	in	in	16a\	-cu-	-cu-	16cc\	.	.	.	.
.	.	.	.	.	.	.	.	.	.	16a\	-la	-la	16a\JJ	.	.	.	.
4D\	-	.	8a\L	.	.	.	8d\	Sae-	sae-	8f\	Sae-	sae-	16dd\LL	.	.	.	.
.	.	.	.	.	.	.	.	.	.	.	.	.	16cc\	.	.	.	.
.	.	.	16dd\L	.	.	.	16d\	-cu-	-cu-	8f\	-cu-	-cu-	16dd\	.	.	.	.
.	.	.	16cc\JJ	.	.	.	16d\	-la	-la	.	.	.	16ee\JJ	.	.	.	.
!	!	!	!	!LO:LB:g=original	!	!	!	!	!	!LO:LB:g=original	!	!	!LO:LB:g=original	!	!	!	!
=99	=99	=99	=99	=99	=99	=99	=99	=99	=99	=99	=99	=99	=99	=99	=99	=99	=99
4G\	.	2r	8dd\L	8G\	et	Et	8B\	Sae-	sae-	8g\	-lo-	-lo-	4dd\	.	.	2ra	.
.	.	.	8b\	8G\	in	in	8B\	-cu-	-cu-	8g\	-rum	-rum,	.	.	.	.	.
4A\	.	.	8ee\	8A\	Sae-	sae-	8c\	-lo-	-lo-	8e\	Sae-	sae-	4cc\	-men	-men.	.	.
.	.	.	8ee\J	16A\	-cu-	-cu-	8c\	-rum	-rum.	8e\	-cu-	-cu-	.	.	.	.	.
.	.	.	.	16A\	-la	-la	.	.	.	.	.	.	.	.	.	.	.
4F\	6	4r	8a/L	8F\	Sae-	sae-	8A\L	a-	A-	8f\	-lo-	-lo-	4r	.	.	4r	.
.	.	.	8a/J	8F\	-cu-	-cu-	16d\L	.	.	8f\	-rum	-rum.	.	.	.	.	.
.	.	.	.	.	.	.	16c\JJ	.	.	.	.	.	.	.	.	.	.
4G\	.	8dd\L	8dd\L	8G\	-lo-	-lo-	8B\L	.	.	8d\L	a-	A-	8dd\	et	Et	8dd\L	.
.	.	8dd\J	8dd\J	8G\	-ru(m)	-ru(m),	16B\L	.	.	16e\L	.	.	8dd\	in	in	8dd\J	.
.	.	.	.	.	.	.	16A\JJ	.	.	16f\JJ	.	.	.	.	.	.	.
!	!	!	!LO:LB:g=original	!	!	!	!	!	!	!	!	!	!	!	!	!	!
=100	=100	=100	=100	=100	=100	=100	=100	=100	=100	=100	=100	=100	=100	=100	=100	=100	=100-
!	!	!	!LO:TX:t=P:problem=mixed beam	!	!	!	!	!	!	!	!	!	!	!	!	!	!
4E\	6	8ee\L	8g/L	8E\	et	et	8G\L	.	.	8g\	.	.	8ee\	Sae-	sae-	8ee\L	8gg\L
.	.	16ee\L	8gg\J	8E\	in	in	16c\L	.	.	8g\	-men	-men,	16ee\	-cu-	-cu-	16ee\L	8gg\J
.	.	16ee\JJ	.	.	.	.	16B\JJ	.	.	.	.	.	16ee\	-la	-la	16ee\JJ	.
4F\	.	8cc\L	8aa\L	8F\	Sae-	sae-	8A\	.	.	8c\L	a-	a-	8cc\	Sae-	sae-	8cc\L	8aa\L
.	.	8cc\J	16aa\L	16F\	-cu-	-cu-	8A\	-men	-men.	16d\L	.	.	8cc\	-cu-	-cu-	8cc\J	16aa\L
.	.	.	16aa\JJ	16F\	-la	-la	.	.	.	16e\JJ	.	.	.	.	.	.	16aa\JJ
!	!	!	!	!	!	!	!	!	!	!	!	!	!	!	!	!LO:LB:g=original	!
8D\L	.	8dd\L	8ff\L	8D\	Sae-	sae-	4r	.	.	8f\	.	.	8dd\	-lo-	-lo-	8dd\L	8ff\L
8E\	.	8dd\J	8gg\	8E\	-cu-	-cu-	.	.	.	8e\	.	.	8dd\	-ru(m)	-ru(m).	8dd\J	8gg\
8F\	.	8a\L	8aa\	8F\	-lo-	-lo-	8A\	et	Et	4d\	.	.	8a\L	A-	A-	8r	8aa\
!	!	!	!LO:SIC:s=8aa\J:v	!	!	!	!	!	!	!	!	!	!	!	!	!	!
8D\J	.	16dd\L	8gg\J	8D/	-rum	-rum.	8A\	in	in	.	.	.	16dd\L	.	.	8dd\	8ff\J
.	.	16cc\JJ	.	.	.	.	.	.	.	.	.	.	16cc\JJ	.	.	.	.
!LO:LB:g=original	!	!LO:LB:g=original	!	!	!	!	!LO:LB:g=original	!	!	!	!	!	!	!	!	!	!
=101	=101	=101	=101	=101	=101	=101	=101	=101	=101	=101	=101	=101	=101	=101	=101	=101	=101
8G\L	.	8b/L	8gg\L	8G\L	A-	A-	8B\	Sae-	sae-	4d\	-men	-men,	8b\L	.	.	8dd\L	8gg\L
16G\L	.	16b/L	8gg\J	16G\L	.	.	16B\	-cu-	-cu-	.	.	.	16b\	.	.	8dd\J	8gg\J
16F\JJ	.	16a/JJ	.	16F\JJ	.	.	16B\	-la	-la	.	.	.	16a\Jk	.	.	.	.
8E\L	6	8g/L	8r	8E\L	.	.	8G/	Sae-	sae-	8g\L	a-	a-	8g\L	.	.	8r	8rff
8C\J	.	16cc/L	8gg\L	8C\J	.	.	8G/	-cu-	-cu-	8e\	.	.	16cc\L	.	.	8dd\	8gg\L
.	.	16b/JJ	.	.	.	.	.	.	.	.	.	.	16b\JJ	.	.	.	.
!LO:SIC:s=8F\L:v	!	!	!	!LO:LB:g=original	!	!	!	!	!	!	!	!	!	!	!	!	!
8G\L	.	8a/L	8ff\	8F\L	.	.	8A/	-lo-	-lo-	8a\	.	.	8a\	.	.	8cc\L	8ff\
8D\J	.	8a/J	8ff\J	8D\J	.	.	8c\	-rum	-rum.	8f\J	.	.	8a\	-men	-men,	8cc\J	8ff\J
!	!	!	!	!LO:TX:t=P:problem=mixed beam	!	!	!	!	!	!	!	!	!	!	!	!	!
4G\	.	4g/	4dd\	8G\L	.	.	4B\	a-	A-	4g\	.	.	4g/	A-	a-	4g/	4dd\
.	.	.	.	8GG/J	.	.	.	.	.	.	.	.	.	.	.	.	.
!	!	!	!	!	!	!	!	!	!	!	!	!	!LO:LB:g=original	!	!	!	!
=102	=102	=102	=102	=102	=102	=102	=102	=102	=102	=102	=102	=102	=102	=102	=102	=102	=102
4C/	.	8g/L	4cc\	4C/	-men	-men,	4c\	-men	-men,	4e\	.	.	4g/	-men	-men,	4e/	4cc\
.	.	8e/J	.	.	.	.	.	.	.	.	.	.	.	.	.	.	.
4GG/	.	8g/L	4dd\	4GG/	A-	a-	4B\	a-	a-	4d\	.	.	4g/	A-	a-	4g/	4dd\
.	.	16g/L	.	.	.	.	.	.	.	.	.	.	.	.	.	.	.
.	.	16f/JJ	.	.	.	.	.	.	.	.	.	.	.	.	.	.	.
4C/	.	4e/	4cc\	4C/	-men	-men.	4c\	-men	-men.	4e\	-men	-men.	4g/	-men	-men.	4e/	4cc\
!LO:MO:mod=!null:null	!	!LO:MO:mod=!null:null	!	!	!	!	!LO:MO:mod=!null:null	!	!	!	!	!	!	!	!	!LO:MO:mod=!null:null	!LO:MO:mod=!null:null
!LO:TX:b:B:t=exſ(libri)s Kaʒi Kolasin	!	!LO:TX:b:t=Lauſ Deo	!	!	!	!	!LO:TX:b:i:t=A.D.M.D.G B V M O S S H	!	!	!	!	!	!	!	!	!LO:TX:b:t=Laus De C.R.	!LO:TX:b:t=Laus Deo\n C.R.
4r	.	4r	4r	4r	.	.	4r	.	.	4r	.	.	4r	.	.	4r	4r
==	==	==	==	==	==	==	==	==	==	==	==	==	==	==	==	==	==
*-	*-	*-	*-	*-	*-	*-	*-	*-	*-	*-	*-	*-	*-	*-	*-	*-	*-
!!!system-decoration: [(g1)][(g2)][(g3)]s9
!!!RDF**kern: < = below
!!!filter-modern: tie -s | humtr -p | sic -sq | shed -e "s/LO:DY:(a|b|rj)/LO:dy:$1/L" | shed -e "s/TX(.*):t=P:/tx$1:t=P:/LG" | modori -m | autostem -r | shed -e "s/yy//" | shed -k -e "s/\(y([^y])/($1/" | shed -e "s/-//B" | shed -e "s/^(\d+[\/\\]right)/$1yy/I; s/^(\d+[\/\\]left)/$1yy/I" | shed -e "s/^(X?)rep$/$1REP/I" | shed -k -e "s/[<>]//g" | shed -e "s/^custos:/Xcustos:/I" | shed -k -e "s/:TUP:/:tup:/L" | shed -k -e "s/r[a-gA-G]+/r/D" | rid -li
!!!ENC: Tomasz Grochalski
!!!END: 2020-04-19
!!!ENC: Marta Lawrence
!!!END: 2020-10-19
!!!EED-modern: Antoni Szymański
!!!END-modern: 2022-07-08
!!!YEC: Copyright 2022 Narodowy Instytut Fryderyka Chopina (https://polishscores.org)
!!!YEM: License CC-BY-4.0 (https://creativecommons.org/licenses/by/4.0)
